!!!!SEGMENT: pl-wtm--r-660-m--001-004_moniuszko-stanislaw--loteryja-no-3-aria.krn
!!!cenid: 18xx:3019
!!!COM: Moniuszko, Stanisław
!!!COM-rismID: pe30008351
!!!CDT: 1819/05/05-1872/06/04
!!!CNT: Polish
!!!OPR: Loteryja
!!!OTL: No. 3 - Aria
!!!OMV: 004
!!!PDT: 1846
!!!AGN: Secular
!!!SMS-siglum: PL-Wtm
!!!SMS-shelfmark: R 660/M
!!!SMS-shelfwork: 001-004 M
!!!SMS-variant:
!!!SMS-altvar:
!!!NIFC-rismSourceID: 1001090852
!!!NIFC-rismChildID: 1001090852
!!!NIFC-islandoraID:
!!!URL-pdf-islandora:
!!!URL-scan:
!!!IIIF:
!!!ONB-nifc: UWAGA: skany 0030-0038
!!!OMD: Andante.
!!!AIN: 1 bass 1 clars 5 empty 1 fagot 1 flt 1 oboe 1 viola
!!!key:
**kern	**dynam	**kern	**dynam	**kern	**text	**text	**kern	**dynam	**kern	**dynam	**kern	**dynam	**kern	**dynam	**kern	**dynam	**kern	**dynam	**kern	**dynam	**kern	**dynam
*group3	*	*group3	*	*	*	*	*group2	*	*group2	*	*group2	*	*group1	*	*group1	*	*group1	*	*group1	*	*group1	*
*part11	*part11	*part10	*part10	*part9	*part9	*part9	*part8	*part8	*part7	*part7	*part6	*part6	*part5	*part5	*part4	*part4	*part3	*part3	*part2	*part2	*part1	*part1
*staff11	*	*staff10	*	*staff9	*staff9	*staff9	*staff8	*	*staff7	*	*staff6	*	*staff5	*	*staff4	*	*staff3	*	*staff2	*	*staff1	*
*Ibass	*	*Iempty	*	*Iempty	*	*	*Iviola	*	*Iempty	*	*Iempty	*	*Iempty	*	*Ifagot	*	*Iclars	*	*Ioboe	*	*Iflt	*
*I"CB	*	*I"VCello	*	*I"Hanna	*	*	*I"Viola	*	*I"V=2.	*	*I"Violino 1	*	*I"Corni. in G.	*	*I"Fagotti.	*	*I"Clarinetti. in C.	*	*I"Oboi	*	*I"Flauti.	*
*clefF4	*	*clefF4	*	*clefC1	*	*	*clefC3	*	*clefG2	*	*clefG2	*	*clefG2	*	*clefF4	*	*clefG2	*	*clefG2	*	*clefG2	*
*ITrd8c12	*	*	*	*	*	*	*	*	*	*	*	*	*ITrd3c5	*	*	*	*	*	*	*	*	*
*k[f#]	*	*k[f#]	*	*k[f#]	*	*	*k[f#]	*	*k[f#]	*	*k[f#]	*	*k[f#]	*	*k[f#]	*	*k[f#]	*	*k[f#]	*	*k[f#]	*
*G:	*	*G:	*	*G:	*	*	*G:	*	*G:	*	*G:	*	*G:	*	*G:	*	*G:	*	*G:	*	*G:	*
*M4/4	*	*M4/4	*	*M4/4	*	*	*M4/4	*	*M4/4	*	*M4/4	*	*M4/4	*	*M4/4	*	*M4/4	*	*M4/4	*	*M4/4	*
*met(c)	*	*met(c)	*	*met(c)	*	*	*met(c)	*	*met(c)	*	*met(c)	*	*met(c)	*	*met(c)	*	*met(c)	*	*met(c)	*	*met(c)	*
*all\right or left	*	*all\right or left	*	*all\right or left	*	*	*all\right or left	*	*all\right or left	*	*all\right or left	*	*all\right or left	*	*all\right or left	*	*all\right or left	*	*all\right or left	*	*all\right or left	*
*2\right	*	*2\right	*	*2\right	*	*	*2\right	*	*2\right	*	*2\right	*	*2\right	*	*2\right	*	*2\right	*	*2\right	*	*2\right	*
*	*	*	*	*	*	*	*	*	*	*	*	*	*	*	*	*	*^	*	*	*	*	*
!	!	!	!	!	!	!	!	!	!	!	!	!	!	!	!	!	!	!	!LO:DY:a	!	!	!LO:TX:t=P:problem=2\right&colon; global	!
!	!	!	!	!	!	!	!	!	!	!	!	!	!	!	!	!	!	!	!	!	!	!	!LO:DY:b:t=p
!	!	!	!	!	!	!	!	!	!	!	!	!	!LO:TX:t=P:f#:problem=znak przykluczowy	!	!	!	!	!	!LO:TX:t=P:f#:problem=znak przykluczowy	!	!	!	!
4r	.	4rGG	.	4r	.	.	4r	.	4d/	p	(4dd\	p	4r	.	4r	.	(4d/	4r	p	4r	.	(4dd\	p
=1	=1	=1	=1	=1	=1	=1	=1	=1	=1	=1	=1	=1	=1	=1	=1	=1	=1	=1	=1	=1	=1	=1	=1
*	*	*^	*	*	*	*	*	*	*	*	*	*	*^	*	*^	*	*	*	*	*	*	*	*
!	!LO:DY:b:t=p	!	!	!LO:DY:b:t=p	!	!	!	!	!	!	!	!	!	!	!	!	!	!	!	!	!	!	!	!	!	!
1GGG	p	(<4D/	2.GG\	p	1r	.	.	(8G/L	p	(8b/L	.	4bb\)	.	(2d/	2.G\	p	(<4D/	1GG	p	4b/)	1rA	.	1r	.	4bb\)	.
.	.	.	.	.	.	.	.	8B/	.	8B/	.	.	.	.	.	.	.	.	.	.	.	.	.	.	.	.
.	.	4F#/	.	.	.	.	.	8d/	.	8d/	.	8.bb\L	.	.	.	.	4F#/	.	.	(<8.b/L	.	.	.	.	(8.bb\L	.
.	.	.	.	.	.	.	.	8c/J)	.	8a/J)	.	.	.	.	.	.	.	.	.	.	.	.	.	.	.	.
.	.	.	.	.	.	.	.	.	.	.	.	16aa\Jk	.	.	.	.	.	.	.	16a/Jk	.	.	.	.	16aa\Jk	.
*	*	*	*	*	*	*	*	*tremolo	*	*	*	*	*	*	*	*	*	*	*	*	*	*	*	*	*	*
.	.	4G/	.	.	.	.	.	(8B/L	.	(8b/L	.	4gg\	.	4g/	.	.	2G/)	.	.	4g/	.	.	.	.	4gg\	.
.	.	.	.	.	.	.	.	8d/	.	8d/	.	.	.	.	.	.	.	.	.	.	.	.	.	.	.	.
.	.	4GG/)	4ryy	.	.	.	.	8B/	.	8g/	.	4bb\	.	4b/	4g\	.	.	.	.	4b/)	.	.	.	.	4bb\)	.
.	.	.	.	.	.	.	.	8d/J)	.	8d/J)	.	.	.	.	.	.	.	.	.	.	.	.	.	.	.	.
*	*	*v	*v	*	*	*	*	*	*	*	*	*	*	*	*	*	*	*	*	*	*	*	*	*	*	*
=2	=2	=2	=2	=2	=2	=2	=2	=2	=2	=2	=2	=2	=2	=2	=2	=2	=2	=2	=2	=2	=2	=2	=2	=2	=2
*	*	*	*	*	*	*	*	*	*	*	*	*	*	*	*	*	*	*	*	*	*	*^	*	*	*
*	*	*	*	*	*	*	*	*	*tremolo	*	*	*	*	*	*	*	*	*	*	*	*	*	*	*	*	*
!	!	!	!	!	!	!	!	!	!	!	!	!	!	!LO:TX:t=P:problem=błędne wyświetlanie łuku	!	!	!LO:TX:t=P:problem=błędne wyświetlanie łuku	!	!	!	!	!	!	!	!	!
(2GGG#X/	.	(2GG#X/	>	1r	.	.	(8B/L	>	(8b/L	>	(2ddd\	>	2dd/	(>2b\	>	(2G#X/	(>2GG#X\	.	(2dd/	(2b\	>	(2dd/	(2fn\	>	(2ddd\	>
.	.	.	.	.	.	.	8d/	.	8d/	.	.	.	.	.	.	.	.	.	.	.	.	.	.	.	.	.
.	.	.	.	.	.	.	8B/	.	8b/	.	.	.	.	.	.	.	.	.	.	.	.	.	.	.	.	.
.	.	.	.	.	.	.	8d/J)	.	8d/J)	.	.	.	.	.	.	.	.	.	.	.	.	.	.	.	.	.
*	*	*	*	*	*	*	*Xtremolo	*	*Xtremolo	*	*	*	*	*	*	*	*	*	*	*	*	*	*	*	*	*
4AAA/)	.	4AA/)	]	.	.	.	(4c\	]	(8c/L	]	4ccc\	]	8cc/)	8a\)	]	4A/)	4AA\)	.	4cc/)	8a\)	]	8cc/)	8e\)	]	4ccc\	]
.	.	.	.	.	.	.	.	.	8e/	.	.	.	8r	8ryy	.	.	.	.	.	8r	.	8r	8ryy	.	.	.
8BBB/L	.	8BB/L	.	.	.	.	8e-X\L	.	8e-X/	.	8bb\L	.	4r	4ryy	.	4r	4C\	.	8b/L	4r	.	4r	4ryy	.	8bb\L	.
8CC/J	.	8C/J	.	.	.	.	8c\J)	.	8c/J)	.	8aa\J)	.	.	.	.	.	.	.	8a/J	.	.	.	.	.	8aa\J)	.
*	*	*	*	*	*	*	*	*	*	*	*	*	*v	*v	*	*	*	*	*	*	*	*	*	*	*	*
=3	=3	=3	=3	=3	=3	=3	=3	=3	=3	=3	=3	=3	=3	=3	=3	=3	=3	=3	=3	=3	=3	=3	=3	=3	=3
*	*	*	*	*	*	*	*tremolo	*	*	*	*	*	*	*	*	*	*	*	*	*	*	*	*	*	*
(4DD/	.	(4D/	.	1r	.	.	(8B\L	.	(8B/L	.	4gg\	.	4r	.	4ryy	4D\	.	4g/	2r	.	4r	2ryy	.	4gg\	.
.	.	.	.	.	.	.	8d\	.	8d/	.	.	.	.	.	.	.	.	.	.	.	.	.	.	.	.
!	!	!	!	!	!	!	!	!	!	!	!	!	!	!	!LO:TX:t=P:problem=błędne wyświetlanie łuku	!	!	!	!	!	!	!	!	!	!
2DD/	.	2D/	.	.	.	.	8B\	.	8b/	.	(8.gg\L	.	2d 2D/	.	(<8.B/L	2D\	.	(8.g/L	.	.	(8.bL 8.g\	.	.	(8.gg\L	.
.	.	.	.	.	.	.	8d\J)	.	8d/J)	.	.	.	.	.	.	.	.	.	.	.	.	.	.	.	.
.	.	.	.	.	.	.	.	.	.	.	16aa\Jk	.	.	.	16c/Jk	.	.	16a/Jk	.	.	16ccJk 16a\	.	.	16aa\Jk	.
*	*	*	*	*	*	*	*Xtremolo	*	*	*	*	*	*	*	*	*	*	*	*	*	*	*	*	*	*
!	!	!	!	!	!	!	!	!	!	!	!	!	!	!	!	!	!	!	!LO:TX:t=P:problem=błędne wyświetlanie łuku	!	!	!	!	!	!
.	.	.	.	.	.	.	(8B\L	.	(8dd/L	.	4bb\	.	.	.	4d/	.	.	4b/	(>4d\	.	4dd/	4b\	.	4bb\	.
.	.	.	.	.	.	.	8d\	.	8d/	.	.	.	.	.	.	.	.	.	.	.	.	.	.	.	.
4DD/)	.	4D/)	.	.	.	.	8c\	.	8e/	.	4aa\)	.	[4d 4D/	.	4c/	4ryy	.	4a/	8e\L	.	8ee/L	4cc\	.	4aa\)	.
.	.	.	.	.	.	.	8d\J)	.	8f#/J)	.	.	.	.	.	.	.	.	.	8f#\J)	.	8ff#/J	.	.	.	.
=4	=4	=4	=4	=4	=4	=4	=4	=4	=4	=4	=4	=4	=4	=4	=4	=4	=4	=4	=4	=4	=4	=4	=4	=4	=4
8GGG/	.	8GG/	.	2r	.	.	(8B/L	.	(8g/L	.	8gg\	.	8d] 8G/	.	8B/)	8G\	.	8g/)	8g\	.	8gg/)	8b\	.	2gg\	.
8r	.	8r	.	.	.	.	8d/)	.	8d/	.	8r	.	8r	.	8r	8ryy	.	8r	8ryy	.	8r	8ryy	.	.	.
8GGG/	.	8GG/	.	.	.	.	(8G/	.	8B/	.	8b 8d/	.	8d 8G/	.	8G 8GG/	4ryy	.	8d 8B/	4ryy	.	8b/	8g\	.	.	.
8r	.	8r	.	.	.	.	8d/J	.	8d/J)	.	8r	.	8r	.	8r	.	.	8r	.	.	8r	8ryy	.	.	.
*	*	*	*	*	*	*	*tremolo	*	*tremolo	*	*	*	*	*	*	*	*	*	*	*	*	*	*	*	*
4GGG/	.	4GG/	.	4r	.	.	8G/L	.	(8B/L	.	4g 4B/	.	4g 4B/	.	4G 4GG/	2ryy	.	4d 4B/	2ryy	.	4g/	4g\	.	2r	.
.	.	.	.	.	.	.	8d/	.	8d/	.	.	.	.	.	.	.	.	.	.	.	.	.	.	.	.
4r	.	4r	.	8d/	Led-	.	8G/	.	8B/	.	4r	.	4r	.	4r	.	.	4r	.	.	4r	4ryy	.	.	.
.	.	.	.	8d/	-wom	.	8d/J)	.	8d/J)	.	.	.	.	.	.	.	.	.	.	.	.	.	.	.	.
*	*	*	*	*	*	*	*Xtremolo	*	*Xtremolo	*	*	*	*	*	*	*	*	*	*	*	*	*	*	*	*
*	*	*	*	*	*	*	*	*	*	*	*	*	*	*	*v	*v	*	*	*	*	*v	*v	*	*	*
!!LO:PB:g=original
=5	=5	=5	=5	=5	=5	=5	=5	=5	=5	=5	=5	=5	=5	=5	=5	=5	=5	=5	=5	=5	=5	=5	=5
!	!	!LO:TX:a:t=col CB.	!	!	!	!	!	!	!	!	!	!	!	!	!	!	!	!	!	!	!	!	!
(1GG	.	(yy1Gyy	.	4.b\	dziec-	.	(8G/L	.	4B/	.	4r	.	1r	.	1r	.	1r	1r	.	1r	.	1r	.
.	.	.	.	.	.	.	8B/	.	.	.	.	.	.	.	.	.	.	.	.	.	.	.	.
.	.	.	.	.	.	.	8d/	.	(2d/	.	(8.b/L	.	.	.	.	.	.	.	.	.	.	.	.
.	.	.	.	8a\	-kiem	.	8c/J)	.	.	.	.	.	.	.	.	.	.	.	.	.	.	.	.
.	.	.	.	.	.	.	.	.	.	.	16a/Jk	.	.	.	.	.	.	.	.	.	.	.	.
.	.	.	.	4g\	być	.	(8B/L	.	.	.	4g/)	.	.	.	.	.	.	.	.	.	.	.	.
.	.	.	.	.	.	.	8d/	.	.	.	.	.	.	.	.	.	.	.	.	.	.	.	.
.	.	.	.	4b\	prze-	.	8B/	.	4g/)	.	4b/	.	.	.	.	.	.	.	.	.	.	.	.
.	.	.	.	.	.	.	8G/J)	.	.	.	.	.	.	.	.	.	.	.	.	.	.	.	.
=6	=6	=6	=6	=6	=6	=6	=6	=6	=6	=6	=6	=6	=6	=6	=6	=6	=6	=6	=6	=6	=6	=6	=6
*	*	*	*	*	*	*	*tremolo	*	*	*	*	*	*	*	*	*	*	*	*	*	*	*	*
2FF#\	.	2F#yy\	.	2dd\	-sta-	.	(8A/L	.	8r	.	4d/	.	1r	.	1r	.	1r	1r	.	1r	.	1r	.
.	.	.	.	.	.	.	8d/	.	(8d/L	.	.	.	.	.	.	.	.	.	.	.	.	.	.
.	.	.	.	.	.	.	8A/	.	8a/	.	(2a/	.	.	.	.	.	.	.	.	.	.	.	.
.	.	.	.	.	.	.	8d/J)	.	8d/J)	.	.	.	.	.	.	.	.	.	.	.	.	.	.
*	*	*	*	*	*	*	*Xtremolo	*	*	*	*	*	*	*	*	*	*	*	*	*	*	*	*
4FF\	.	4Fnyy\	.	4a\	-ła,	.	4A/	.	(8a/L	.	.	.	.	.	.	.	.	.	.	.	.	.	.
.	.	.	.	.	.	.	.	.	8d/	.	.	.	.	.	.	.	.	.	.	.	.	.	.
4EE\)	.	4Eyy\)yy	.	8b\	le-	.	4G#X/	.	8B/	.	4b/)	.	.	.	.	.	.	.	.	.	.	.	.
.	.	.	.	8e/	-dwom	.	.	.	8e/J)	.	.	.	.	.	.	.	.	.	.	.	.	.	.
=7	=7	=7	=7	=7	=7	=7	=7	=7	=7	=7	=7	=7	=7	=7	=7	=7	=7	=7	=7	=7	=7	=7	=7
(4AAA/	.	(yy4AAyy/	.	4.cc\	myś-	.	(8A/L	.	(8c/L	.	(4.cc/	.	1r	.	1r	.	1r	1r	.	1r	.	1r	.
.	.	.	.	.	.	.	8E/	.	8e/	.	.	.	.	.	.	.	.	.	.	.	.	.	.
4BBB/	.	4BByy/	.	.	.	.	8G#X/	.	8B/	.	.	.	.	.	.	.	.	.	.	.	.	.	.
.	.	.	.	8b\	-lą	.	8E/J)	.	8e/J)	.	8b/	.	.	.	.	.	.	.	.	.	.	.	.
4CC/	.	4Cyy/	.	4a\	w świat	.	(8A/L	.	(8A/L	.	4a/)	.	.	.	.	.	.	.	.	.	.	.	.
.	.	.	.	.	.	.	8c/	.	8e/	.	.	.	.	.	.	.	.	.	.	.	.	.	.
4DD/)	.	4Dyy/)yy	.	4b\	wyj-	.	8d/	.	8fn/	.	4b/	.	.	.	.	.	.	.	.	.	.	.	.
.	.	.	.	.	.	.	8B/J)	.	8d/J)	.	.	.	.	.	.	.	.	.	.	.	.	.	.
=8	=8	=8	=8	=8	=8	=8	=8	=8	=8	=8	=8	=8	=8	=8	=8	=8	=8	=8	=8	=8	=8	=8	=8
*	*	*	*	*	*	*	*tremolo	*	*	*	*	*	*	*	*	*	*	*	*	*	*	*	*
!	!LO:DY:a	!	!LO:DY:a	!	!	!	!	!	!	!	!	!	!	!	!	!	!	!	!	!	!	!	!
2.EE\	<	2.Eyy\	<	2a\	-rza-	.	(8A/L	.	(8c/L	.	(2a/	.	1r	.	1r	.	1r	1r	.	1r	.	1r	.
.	.	.	.	.	.	.	8E/	.	8e/	.	.	.	.	.	.	.	.	.	.	.	.	.	.
.	.	.	.	.	.	.	8A/	.	8c/	.	.	.	.	.	.	.	.	.	.	.	.	.	.
.	.	.	.	.	.	.	8E/J	.	8d/J	.	.	.	.	.	.	.	.	.	.	.	.	.	.
*	*	*	*	*	*	*	*Xtremolo	*	*	*	*	*	*	*	*	*	*	*	*	*	*	*	*
.	.	.	.	8g#X\	-ła,	.	8B/L	.	8e/L)	.	4g#X/	.	.	.	.	.	.	.	.	.	.	.	.
.	.	.	.	8r	.	.	8E/J)	.	8B/	.	.	.	.	.	.	.	.	.	.	.	.	.	.
4CC#X\	[	4C#Xyy\	[	4gn\	myśl	.	8B-X/L	.	(8e/	.	4gn/)	.	.	.	.	.	.	.	.	.	.	.	.
.	.	.	.	.	.	.	8E/J	.	8B-X/J)	.	.	.	.	.	.	.	.	.	.	.	.	.	.
=9	=9	=9	=9	=9	=9	=9	=9	=9	=9	=9	=9	=9	=9	=9	=9	=9	=9	=9	=9	=9	=9	=9	=9
!	!LO:DY:a	!	!LO:DY:a	!	!	!	!	!	!	!	!	!	!	!	!	!	!	!	!	!	!	!	!
2DD\	p	2Dyy\	pyy	4f#/	ta	.	8F#/	.	8r	.	4r	.	1r	.	1r	.	1r	1r	.	1r	.	1r	.
.	.	.	.	.	.	.	8r	.	(8A/L	.	.	.	.	.	.	.	.	.	.	.	.	.	.
.	.	.	.	8f#/	ma-	.	4A 4F#/	.	8d/	.	4f# 4A/	.	.	.	.	.	.	.	.	.	.	.	.
.	.	.	.	8g/	-rząc	.	.	.	8A/J)	.	.	.	.	.	.	.	.	.	.	.	.	.	.
*	*	*	*	*	*	*	*	*	*tremolo	*	*	*	*	*	*	*	*	*	*	*	*	*	*
2CC\	.	2Cnyy\	.	(4a\	o	.	4r	.	(8d/L	.	4r	.	.	.	.	.	.	.	.	.	.	.	.
.	.	.	.	.	.	.	.	.	8A/	.	.	.	.	.	.	.	.	.	.	.	.	.	.
.	.	.	.	8b\)	.	.	4A 4F#/	.	8d/	.	4f# 4A/	.	.	.	.	.	.	.	.	.	.	.	.
.	.	.	.	8cc\	przy-	.	.	.	8A/J)	.	.	.	.	.	.	.	.	.	.	.	.	.	.
*	*	*	*	*	*	*	*	*	*Xtremolo	*	*	*	*	*	*	*	*	*	*	*	*	*	*
!!LO:PB:g=original
=10	=10	=10	=10	=10	=10	=10	=10	=10	=10	=10	=10	=10	=10	=10	=10	=10	=10	=10	=10	=10	=10	=10	=10
*	*	*	*	*	*	*	*	*	*	*	*	*	*	*	*	*	*	*	*	*	*	*^	*
4BBB/	.	4BByy/	.	(4.dd\	-szłoś-	.	4r	.	8r	.	4r	.	1r	.	1r	.	(<4.d/	1r	p <	1r	.	(4.dd\	1re	p <
.	.	.	.	.	.	.	.	.	(8d/L	.	.	.	.	.	.	.	.	.	.	.	.	.	.	.
4r	.	4ryy	.	.	.	.	4d 4G/	.	8G/	.	4g 4G/	.	.	.	.	.	.	.	.	.	.	.	.	.
.	.	.	.	8b\)	.	.	.	.	8d/J)	.	.	.	.	.	.	.	8e/	.	.	.	.	8ee\	.	.
*	*	*	*	*	*	*	*	*	*tremolo	*	*	*	*	*	*	*	*	*	*	*	*	*	*	*
4GGG/	.	4GGyy/	.	8g\	-ci	.	4r	.	(8B/L	.	4r	.	.	.	.	.	8f#/L	.	.	.	.	8ff#\L	.	.
.	.	.	.	8b\L	już	.	.	.	8d/	.	.	.	.	.	.	.	8g/	.	.	.	.	8gg\	.	.
4r	.	4ryy	.	8a\J	.	.	4d 4G/	.	8B/	.	4d/	.	.	.	.	.	8a/	.	.	.	.	8aa\	.	.
.	.	.	.	8g\	ma-	.	.	.	8d/J)	.	.	.	.	.	.	.	8b/J)	.	.	.	.	8bb\J)	.	.
*	*	*	*	*	*	*	*	*	*Xtremolo	*	*	*	*	*	*	*	*	*	*	*	*	*	*	*
*	*	*	*	*	*	*	*	*	*	*	*	*	*	*	*	*	*	*	*	*	*	*v	*v	*
=11	=11	=11	=11	=11	=11	=11	=11	=11	=11	=11	=11	=11	=11	=11	=11	=11	=11	=11	=11	=11	=11	=11	=11
*	*	*	*	*	*	*	*	*	*	*	*	*	*	*	*^	*	*	*	*	*^	*	*	*
!	!	!	!	!	!	!	!	!	!	!	!	!LO:DY:a:t=fp.	!	!	!	!	!	!	!	!	!	!	!	!	!
!	!	!	!	!	!	!	!	!	!	!	!	!	!	!	!	!	!	!	!	!	!	!	!LO:DY:b:t=fp.	!	!
!	!	!	!	!	!	!	!	!	!	!	!	!	!	!	!	!	!LO:DY:b:t=fp.	!	!	!	!	!	!	!	!
!	!	!	!LO:DY:b:t=fp.	!	!	!	!	!	!	!	!	!	!	!	!	!	!	!	!	!	!	!	!	!	!
!	!LO:DY:b:t=fp.	!	!	!	!	!	!	!	!	!	!	!	!	!	!	!	!	!	!	!	!	!	!	!	!
2CC/	fp	2Cnyy/	fp	4.f#/	-rzy-	.	4e-X 4c\	fp	8r	.	4f# 4A/	fp	1r	.	(2e-X/	2C\	fp	2cc/	2a\	[ fp	(<2ee-X/	2f#\	fp	4ccc\	[ sf
.	.	.	.	.	.	.	.	.	(8e-X/L	.	.	.	.	.	.	.	.	.	.	.	.	.	.	.	.
.	.	.	.	.	.	.	4e- 4c\	.	8c/	.	4f# 4A/	.	.	.	.	.	.	.	.	.	.	.	.	4r	.
.	.	.	.	8g/	-ła	.	.	.	8e-/J)	.	.	.	.	.	.	.	.	.	.	.	.	.	.	.	.
*	*	*	*	*	*	*	*	*	*tremolo	*	*	*	*	*	*	*	*	*	*	*	*	*	*	*	*
4CC/	.	4Cyy/	.	(4a\	o	.	4r	.	(8d/L	.	4r	.	.	.	8d/)	2rAA	.	2r	2ryy	.	8dd/)	2re	.	2r	.
.	.	.	.	.	.	.	.	.	8A/	.	.	.	.	.	8r	.	.	.	.	.	8r	.	.	.	.
4r	.	4ryy	.	8b\)	.	.	4d\	.	8d/	.	4f# 4A/	.	.	.	4r	.	.	.	.	.	4r	.	.	.	.
.	.	.	.	8cc\	mi-	.	.	.	8A/J)	.	.	.	.	.	.	.	.	.	.	.	.	.	.	.	.
*	*	*	*	*	*	*	*	*	*Xtremolo	*	*	*	*	*	*	*	*	*	*	*	*	*	*	*	*
*	*	*	*	*	*	*	*	*	*	*	*	*	*	*	*v	*v	*	*	*	*	*v	*v	*	*	*
=12	=12	=12	=12	=12	=12	=12	=12	=12	=12	=12	=12	=12	=12	=12	=12	=12	=12	=12	=12	=12	=12	=12	=12
.	.	.	.	8qee/	.	.	.	.	.	.	.	.	.	.	.	.	.	.	.	.	.	.	.
*	*	*	*	*	*	*	*	*	*	*	*	*	*	*	*	*	*	*	*	*	*	*^	*
4BBB/	.	4BByy/	.	2dd\	-łoś-	.	4r	.	(8B/L	.	4r	.	1r	.	1r	.	(<4.d/	1r	.	1r	.	(4.dd\	1re	.
.	.	.	.	.	.	.	.	.	8d/	.	.	.	.	.	.	.	.	.	.	.	.	.	.	.
4r	.	4ryy	.	.	.	.	4d 4G\	.	8G/	.	4g 4G/	.	.	.	.	.	.	.	.	.	.	.	.	.
.	.	.	.	.	.	.	.	.	8d/J)	.	.	.	.	.	.	.	8e/	.	.	.	.	8ee\	.	.
*	*	*	*	*	*	*	*	*	*tremolo	*	*	*	*	*	*	*	*	*	*	*	*	*	*	*
4GGG/	.	4GGyy/	.	4dd\	-ci,	.	4r	.	(8B/L	.	4r	.	.	.	.	.	8f#/L	.	.	.	.	8ff#\L	.	.
.	.	.	.	.	.	.	.	.	8d/	.	.	.	.	.	.	.	8g/	.	.	.	.	8gg\	.	.
4r	.	4ryy	.	8dd\	myśl	.	4d 4G\	.	8B/	.	4g 4B/	.	.	.	.	.	8d/	.	.	.	.	8dd\	.	.
.	.	.	.	8dd\	ta	.	.	.	8d/J)	.	.	.	.	.	.	.	8B/J)	.	.	.	.	8b\J)	.	.
*	*	*	*	*	*	*	*	*	*Xtremolo	*	*	*	*	*	*	*	*	*	*	*	*	*	*	*
*	*	*	*	*	*	*	*	*	*	*	*	*	*	*	*	*	*v	*v	*	*	*	*v	*v	*
=13	=13	=13	=13	=13	=13	=13	=13	=13	=13	=13	=13	=13	=13	=13	=13	=13	=13	=13	=13	=13	=13	=13
!	!	!	!LO:DY:b:t=fp.	!	!	!	!	!	!	!	!	!	!	!	!	!	!	!	!	!	!	!
!	!LO:DY:b:t=fp.	!	!	!	!	!	!	!	!	!	!	!	!	!	!	!	!	!	!	!	!	!
2EE\	fp	2Eyy\	fpyy	(4dd\	ma-	.	8r	.	(4B/	sf	(4g#X/	sf	1r	.	1r	.	8G#X/	.	1r	.	8g#X/	.
.	.	.	.	.	.	.	(8fn\L	.	.	.	.	.	.	.	.	.	8r	.	.	.	8r	.
.	.	.	.	8cc\)	.	.	8e\	.	8c/L	.	8a/L	.	.	.	.	.	4r	.	.	.	4r	.
.	.	.	.	8b\	-rząc	.	8d\J)	.	8d/J)	.	8b/J)	.	.	.	.	.	.	.	.	.	.	.
4EE|>\	.	4Eyy|>\	.	4a\	o	.	4c|>\	.	(8c/L	.	4a|</	.	.	.	.	.	2r	.	.	.	2r	.
.	.	.	.	.	.	.	.	.	8e/	.	.	.	.	.	.	.	.	.	.	.	.	.
4EE|>\	.	4Eyy|>\	.	4g#X\	przy-	.	4B|>\	.	8d/	.	4g#|</	.	.	.	.	.	.	.	.	.	.	.
.	.	.	.	.	.	.	.	.	8e/J)	.	.	.	.	.	.	.	.	.	.	.	.	.
=14	=14	=14	=14	=14	=14	=14	=14	=14	=14	=14	=14	=14	=14	=14	=14	=14	=14	=14	=14	=14	=14	=14
4AAA/	.	4AAyy/	.	4b\	-szło-	.	(4G#X/	>	(8d/L	.	(4b/	>	1r	.	1r	.	1r	.	1r	.	1r	.
.	.	.	.	.	.	.	.	.	8e/	.	.	.	.	.	.	.	.	.	.	.	.	.
4r	.	4ryy	.	8a\	-ści.	.	8A/)	]	8c/	.	8a/)	]	.	.	.	.	.	.	.	.	.	.
.	.	.	.	8r	.	.	8r	.	8A/J)	.	8r	.	.	.	.	.	.	.	.	.	.	.
(4CC/	.	(yy4Cnyy/	.	(4e/	już	.	8r	.	2A#X/	.	(4e/	.	.	.	.	.	.	.	.	.	.	.
.	.	.	.	.	.	.	(8G#/L	.	.	.	.	.	.	.	.	.	.	.	.	.	.	.
4CC#X/)	.	4C#Xyy/)yy	.	8f#/)	.	.	8F#/)	.	.	.	8f#/L)	.	.	.	.	.	.	.	.	.	.	.
.	.	.	.	8g/	ma-	.	8E/J	.	.	.	8g/J	.	.	.	.	.	.	.	.	.	.	.
!!LO:PB:g=original
=15	=15	=15	=15	=15	=15	=15	=15	=15	=15	=15	=15	=15	=15	=15	=15	=15	=15	=15	=15	=15	=15	=15
*	*	*	*	*	*	*	*	*	*	*	*	*	*	*	*	*	*^	*	*	*	*	*
2.DD\	.	2D\	.	8g\	-rzy-	.	(8D/L	.	(8B/L	.	(4g/	.	1r	.	1r	.	2r	1r	.	1r	.	2r	.
.	.	.	.	8g\	-ła	.	8B/	.	8d/	.	.	.	.	.	.	.	.	.	.	.	.	.	.
.	.	.	.	8f#\	o	.	8A/	.	8c/	.	8f#/L	.	.	.	.	.	.	.	.	.	.	.	.
.	.	.	.	8g\	mi-	.	8G/J)	.	8B/J)	.	8g/J)	.	.	.	.	.	.	.	.	.	.	.	.
.	.	4r	.	(4.b\	-łoś-	.	(8B/L	.	(8d/L	.	4.b/	.	.	.	.	.	4r	.	.	.	.	4r	.
.	.	.	.	.	.	.	8G/J	.	8g/	.	.	.	.	.	.	.	.	.	.	.	.	.	.
!	!	!LO:TX:a:t=Solo	!	!	!	!	!	!	!	!	!	!	!	!	!	!	!	!	!	!	!	!	!
4DD\	.	(4D\	.	.	.	.	4F#/)	.	8d/	.	.	.	.	.	.	.	(4d/	.	.	.	.	(4dd\	p
.	.	.	.	8a\)	.	.	.	.	8c/J)	.	8a/	.	.	.	.	.	.	.	.	.	.	.	.
=16	=16	=16	=16	=16	=16	=16	=16	=16	=16	=16	=16	=16	=16	=16	=16	=16	=16	=16	=16	=16	=16	=16	=16
4GGG/	.	1d)	.	4g'\	-ci	.	(8G/L	.	(8B/L	.	(4g/	.	2.d 2.G/	pp	1r	.	4b/)	4d\	.	1r	.	4bb\)	.
.	.	.	.	.	.	.	8D/	.	8d/	.	.	.	.	.	.	.	.	.	.	.	.	.	.
4r	.	.	.	4r	.	.	8A/	.	8c/	.	4f#/	.	.	.	.	.	(8.b/L	4f#\	.	.	.	(8.bb\L	.
.	.	.	.	.	.	.	8D/J)	.	8d/J)	.	.	.	.	.	.	.	.	.	.	.	.	.	.
.	.	.	.	.	.	.	.	.	.	.	.	.	.	.	.	.	16a/Jk	.	.	.	.	16aa\Jk	.
*	*	*	*	*	*	*	*tremolo	*	*	*	*	*	*	*	*	*	*	*	*	*	*	*	*
2r	.	.	.	4r	.	.	(8G/L	.	(8B/L	.	4g/	.	.	.	.	.	4g/	4g\	.	.	.	4gg\	.
.	.	.	.	.	.	.	8D/	.	8d/	.	.	.	.	.	.	.	.	.	.	.	.	.	.
.	.	.	.	8b\	Led-	.	8G/	.	8B/	.	4b/)	.	4r	.	.	.	4b/	4d\	.	.	.	4bb\	.
.	.	.	.	8b\	-wom	.	8D/J)	.	8G/J)	.	.	.	.	.	.	.	.	.	.	.	.	.	.
*	*	*	*	*	*	*	*Xtremolo	*	*	*	*	*	*	*	*	*	*	*	*	*	*	*	*
=17	=17	=17	=17	=17	=17	=17	=17	=17	=17	=17	=17	=17	=17	=17	=17	=17	=17	=17	=17	=17	=17	=17	=17
!	!LO:DY:b:t=fp.	!	!	!	!	!	!	!	!	!	!	!	!	!	!	!	!	!	!	!	!	!	!
(1EE	fp	(4fn\	>	(4dd\	dziec-	.	(2G#X/	.	(8G#X/L	.	8dd'\	.	1r	.	1r	.	8dd/)	8fn\	.	1r	.	8ddd|>\)	.
.	.	.	.	.	.	.	.	.	8B/	.	8r	.	.	.	.	.	8r	8ryy	.	.	.	8r	.
!	!	!	!	!	!	!	!	!	!	!	!	!	!	!	!	!	!	!LO:N:vis=1	!	!	!	!	!
.	.	8.e\L	.	8.cc\)	.	.	.	.	8e/	.	4r	.	.	.	.	.	4r	2.re	.	.	.	4r	.
.	.	.	.	.	.	.	.	.	8B/J)	.	.	.	.	.	.	.	.	.	.	.	.	.	.
.	.	16d\Jk	]	16b\	-kiem	.	.	.	.	.	.	.	.	.	.	.	.	.	.	.	.	.	.
.	.	4c\	.	4a\	być	.	4A/	.	(8c/L	.	2r	.	.	.	.	.	4r	.	.	.	.	4r	.
.	.	.	.	.	.	.	.	.	8e/	.	.	.	.	.	.	.	.	.	.	.	.	.	.
.	.	4B\)	.	4g#X\	prze-	.	4B/)	.	8B/	.	.	.	.	.	.	.	(4e/	.	.	.	.	(4ee\	.
.	.	.	.	.	.	.	.	.	8e/J)	.	.	.	.	.	.	.	.	.	.	.	.	.	.
=18	=18	=18	=18	=18	=18	=18	=18	=18	=18	=18	=18	=18	=18	=18	=18	=18	=18	=18	=18	=18	=18	=18	=18
!	!	!	!	!	!	!	!	!	!	!	!	!	!	!	!	!LO:DY:b:t=pp	!	!	!	!	!	!	!
4AAA/)	.	(8c\L	.	4a\	-sta-	.	(8A/L	.	(8A/L	.	(<4a/	.	1r	.	2e 2A\	pp	4cc/)	4e\	.	1r	.	4ccc\)	.
.	.	[8e\J	.	.	.	.	8E/	.	8c/	.	.	.	.	.	.	.	.	.	.	.	.	.	.
4r	.	2.e\])	.	4e/	-ła	.	8A/	.	8e/	.	4g#X/	.	.	.	.	.	(8.cc/L	4g#X\	.	.	.	(8.ccc\L	.
.	.	.	.	.	.	.	8E/J)	.	8d/J)	.	.	.	.	.	.	.	.	.	.	.	.	.	.
.	.	.	.	.	.	.	.	.	.	.	.	.	.	.	.	.	16b/Jk	.	.	.	.	16bb\Jk	.
2r	.	.	.	4r	.	.	(8c/L	.	(8c/L	.	4a/	.	.	.	2r	.	4a/	4a\	.	.	.	4aa\	.
.	.	.	.	.	.	.	8E/	.	8e/	.	.	.	.	.	.	.	.	.	.	.	.	.	.
.	.	.	.	8e/	led-	.	8A/	.	8c/	.	4cc\)	.	.	.	.	.	4cc/	[4e\	.	.	.	4ccc\	.
.	.	.	.	8e/	-wom	.	8E/J)	.	8A/J)	.	.	.	.	.	.	.	.	.	.	.	.	.	.
=19	=19	=19	=19	=19	=19	=19	=19	=19	=19	=19	=19	=19	=19	=19	=19	=19	=19	=19	=19	=19	=19	=19	=19
!	!LO:DY:b:t=fp.	!	!	!	!	!	!	!	!	!	!	!	!	!	!	!	!	!	!	!	!	!	!
(1FF#	fp	(4g\	>	(4ee\	myś-	.	(2A#X/	.	(8A#X/L	.	8ee'\	.	1r	.	1r	.	8ee/)	8e\]	.	1r	.	8eee\)	.
.	.	.	.	.	.	.	.	.	8c#X/	.	8r	.	.	.	.	.	8r	8r	.	.	.	8r	.
.	.	8.f#\L	.	8.dd\)	.	.	.	.	8f#/	.	4r	.	.	.	.	.	4r	4r	.	.	.	4r	.
.	.	.	.	.	.	.	.	.	8c#/J)	.	.	.	.	.	.	.	.	.	.	.	.	.	.
.	.	16e\Jk	.	16cc#X\	-lą	.	.	.	.	.	.	.	.	.	.	.	.	.	.	.	.	.	.
.	.	4d\	.	4b\	w świat	.	4B/	.	(8d/L	.	2r	.	.	.	.	.	2r	2r	.	.	.	2rdd	.
.	.	.	.	.	.	.	.	.	8f#/	.	.	.	.	.	.	.	.	.	.	.	.	.	.
.	.	4c#X\)	]]	4a#X\	wyj-	.	4c#X/)	.	8c#/	.	.	.	.	.	.	.	.	.	.	.	.	.	.
.	.	.	.	.	.	.	.	.	8f#/J)	.	.	.	.	.	.	.	.	.	.	.	.	.	.
!!LO:PB:g=original
=20	=20	=20	=20	=20	=20	=20	=20	=20	=20	=20	=20	=20	=20	=20	=20	=20	=20	=20	=20	=20	=20	=20	=20
.	.	.	.	8qcc/	.	.	.	.	.	.	.	.	.	.	.	.	.	.	.	.	.	.	.
(2BBB/)	<	(2B\	<	4b\	-rza-	.	8r	<	8B/	.	8r	.	1r	.	1r	.	1r	1r	.	1r	.	1r	.
.	.	.	.	.	.	.	8B/L	.	8d/L	<	8f#/L	<	.	.	.	.	.	.	.	.	.	.	.
.	.	.	.	4b\	-ła	.	8B/	.	8d/	.	8f#/	.	.	.	.	.	.	.	.	.	.	.	.
.	.	.	.	.	.	.	8B/J	.	8d/J	.	8f#/J	.	.	.	.	.	.	.	.	.	.	.	.
*	*	*	*	*	*	*	*tremolo	*	*tremolo	*	*tremolo	*	*	*	*	*	*	*	*	*	*	*	*
4DD/	[ >	4D/)	[ >	4r	.	.	8B/L	[ >	8d/L	[ >	8f#/L	[ >	.	.	.	.	.	.	.	.	.	.	.
.	.	.	.	.	.	.	8B/	.	8d/	.	8f#/	.	.	.	.	.	.	.	.	.	.	.	.
4BBB/)	]]	4BB/	]]	8b\	myśl	.	8B/	.	8d/	.	8f#/	.	.	.	.	.	.	.	.	.	.	.	.
.	.	.	.	8b\	ta	.	8B/J	]]	8d/J	]]	8f#/J	]]	.	.	.	.	.	.	.	.	.	.	.
*	*	*	*	*	*	*	*Xtremolo	*	*Xtremolo	*	*Xtremolo	*	*	*	*	*	*	*	*	*	*	*	*
=21	=21	=21	=21	=21	=21	=21	=21	=21	=21	=21	=21	=21	=21	=21	=21	=21	=21	=21	=21	=21	=21	=21	=21
4EE\	.	4Eyy\	.	4.b\	ma-	.	8r	p	8r	p	8r	.	1r	.	1r	.	1r	1r	.	1r	.	1r	.
.	.	.	.	.	.	.	8B/L	.	8e/L	.	8g/L	p	.	.	.	.	.	.	.	.	.	.	.
4r	.	4ryy	.	.	.	.	8B/	.	8e/	.	8g/	.	.	.	.	.	.	.	.	.	.	.	.
.	.	.	.	8a#X\	-rząc	.	8A#X/J	.	8e/J	.	8g/J	.	.	.	.	.	.	.	.	.	.	.	.
4GG|>\	.	4Gyy|>\	.	4b\	o	.	8B/L	.	8e/L	.	8B/L	.	.	.	.	.	.	.	.	.	.	.	.
.	.	.	.	.	.	.	8B/	.	8e/	.	8B/	.	.	.	.	.	.	.	.	.	.	.	.
4EE|>\	.	4Eyy|>\	.	4cc#X\	przy-	.	8c#X/	.	8e/	.	8g/	.	.	.	.	.	.	.	.	.	.	.	.
.	.	.	.	.	.	.	8c#/J	.	8e/J	.	8g/J	.	.	.	.	.	.	.	.	.	.	.	.
=22	=22	=22	=22	=22	=22	=22	=22	=22	=22	=22	=22	=22	=22	=22	=22	=22	=22	=22	=22	=22	=22	=22	=22
(2BBB/	<	(yy2BByy/	<	2dd\	-szłoś-	.	8r	<	8r	.	8r	.	1r	.	1r	.	1r	1r	.	1r	.	1r	.
*	*	*	*	*	*	*	*tremolo	*	*tremolo	*	*tremolo	*	*	*	*	*	*	*	*	*	*	*	*
.	.	.	.	.	.	.	8d\L	.	8d/L	<	8f#/L	<	.	.	.	.	.	.	.	.	.	.	.
.	.	.	.	.	.	.	8d\	.	8d/	.	8f#/	.	.	.	.	.	.	.	.	.	.	.	.
.	.	.	.	.	.	.	8d\J	.	8d/J	.	8f#/J	.	.	.	.	.	.	.	.	.	.	.	.
4DD/	[ >	4Dyy/	[ >	4b\	-ci	.	8B/L	[ >	8d/L	[ >	8f#/L	[ >	.	.	.	.	.	.	.	.	.	.	.
.	.	.	.	.	.	.	8B/	.	8d/	.	8f#/	.	.	.	.	.	.	.	.	.	.	.	.
4BBB/)	]]	4BByy/)yy	]]	8b\	już	.	8B/	.	8d/	.	8f#/	.	.	.	.	.	.	.	.	.	.	.	.
.	.	.	.	8b\	ma-	.	8B/J	]]	8d/J	]]	8f#/J	]]	.	.	.	.	.	.	.	.	.	.	.
=23	=23	=23	=23	=23	=23	=23	=23	=23	=23	=23	=23	=23	=23	=23	=23	=23	=23	=23	=23	=23	=23	=23	=23
4EE\	.	4Eyy\	.	4b\	-rzy-	.	8B/L	p	8d/L	p	8g/L	p	1r	.	1r	.	1r	1r	.	1r	.	1r	.
.	.	.	.	.	.	.	8B/J	.	8d/	.	8g/J	.	.	.	.	.	.	.	.	.	.	.	.
4r	.	4ryy	.	4a#X\	-ła	.	8A#X/L	.	8d/	.	8f#/L	.	.	.	.	.	.	.	.	.	.	.	.
.	.	.	.	.	.	.	8A#/J	.	8d/	.	8f#/J	.	.	.	.	.	.	.	.	.	.	.	.
4GG\	.	4Gyy\	.	4b\	o	.	8B/L	.	8d/	.	8g/L	.	.	.	.	.	.	.	.	.	.	.	.
.	.	.	.	.	.	.	8B/J	.	8d/J	.	8g/	.	.	.	.	.	.	.	.	.	.	.	.
4EE\	.	4Eyy\	.	4cc#X\	mi-	.	8c#X/L	.	8e/L	.	8g/	.	.	.	.	.	.	.	.	.	.	.	.
.	.	.	.	.	.	.	8c#/J	.	8e/J	.	8g/J	.	.	.	.	.	.	.	.	.	.	.	.
=24	=24	=24	=24	=24	=24	=24	=24	=24	=24	=24	=24	=24	=24	=24	=24	=24	=24	=24	=24	=24	=24	=24	=24
(2BBB/	>	(yy2BByy/	>	2.dd\	-łoś-	.	8r	.	8r	.	8r	.	1r	.	1r	.	1r	1r	.	1r	.	1r	.
.	.	.	.	.	.	.	8d\L	<	8d/L	<	8f#/L	<	.	.	.	.	.	.	.	.	.	.	.
.	.	.	.	.	.	.	8d\	.	8d/	.	8f#/	.	.	.	.	.	.	.	.	.	.	.	.
.	.	.	.	.	.	.	8d\J	.	8d/J	.	8f#/J	.	.	.	.	.	.	.	.	.	.	.	.
4BB\)	]	4Byy\)yy	]	.	.	.	8B/L	.	8d/L	.	8f#/L	.	.	.	.	.	.	.	.	.	.	.	.
.	.	.	.	.	.	.	8B/	.	8d/	.	8f#/	.	.	.	.	.	.	.	.	.	.	.	.
4BBB|</	.	4BByy|</	.	4dd\	-ci	.	8B/	.	8d/	.	8f#/	.	.	.	.	.	.	.	.	.	.	.	.
.	.	.	.	.	.	.	8B/J	[[	8d/J	[[	8f#/J	[[	.	.	.	.	.	.	.	.	.	.	.
*	*	*	*	*	*	*	*Xtremolo	*	*Xtremolo	*	*Xtremolo	*	*	*	*	*	*	*	*	*	*	*	*
!!LO:PB:g=original
=25	=25	=25	=25	=25	=25	=25	=25	=25	=25	=25	=25	=25	=25	=25	=25	=25	=25	=25	=25	=25	=25	=25	=25
!	!	!	!	!	!	!	!	!	!	!	!	!	!	!	!	!	!	!	!LO:DY:b:t=pp	!	!	!	!
(1EE	.	(yy1Eyy	.	(4dd\	ma-	.	(8d/L	.	(4fn/	.	(4g#X/	.	1r	.	(4G#X\	pp	(<4dd/	1r	pp	(4fn/	pp	1r	.
.	.	.	.	.	.	.	8E/	.	.	.	.	.	.	.	.	.	.	.	.	.	.	.	.
.	.	.	.	8cc\)	.	.	8c/	.	8e/L	.	8a/L	.	.	.	8A\L	.	8cc/L	.	.	[2.e/)	.	.	.
.	.	.	.	8b\	-rząc	.	8B/J)	.	8d/J	.	8b/J	.	.	.	8B\J	.	8b/J	.	.	.	.	.	.
.	.	.	.	4a\	o	.	(8A/L	.	8c/)	.	4cc/	.	.	.	4c\	.	4a/	.	.	.	.	.	.
.	.	.	.	.	.	.	8E/	.	4e/	.	.	.	.	.	.	.	.	.	.	.	.	.	.
.	.	.	.	4g#X\	przy-	.	8G#X/	.	.	.	4b/)	.	.	.	4B\)	.	4g#X/)	.	.	.	.	.	.
.	.	.	.	.	.	.	8E/J)	.	8e/	.	.	.	.	.	.	.	.	.	.	.	.	.	.
*	*	*	*	*	*	*	*	*	*	*	*	*	*	*	*	*	*v	*v	*	*	*	*	*
=26	=26	=26	=26	=26	=26	=26	=26	=26	=26	=26	=26	=26	=26	=26	=26	=26	=26	=26	=26	=26	=26	=26
4AAA/)	.	4AAyy/)yy	.	4b\	-szło-	.	(4G#X/	.	(8d/L	.	(4b/	.	1r	.	(4G#X\	.	(4b/	.	(2.e/]	.	1r	.
.	.	.	.	.	.	.	.	.	8e/	.	.	.	.	.	.	.	.	.	.	.	.	.
4r	.	4ryy	.	8a\	-ści	.	8A/)	.	8c/	.	8a/)	.	.	.	4A\)	.	4a/)	.	.	.	.	.
.	.	.	.	8r	.	.	8r	.	8A/J)	.	8r	.	.	.	.	.	.	.	.	.	.	.
(2CC#X/	.	(yy2C#Xyy/	.	(4e/	już	.	(4G#/	.	8r	.	(4e/	.	.	.	2r	.	2r	.	.	.	.	.
.	.	.	.	.	.	.	.	.	(8B-X/L	.	.	.	.	.	.	.	.	.	.	.	.	.
.	.	.	.	8f#/)	.	.	8F#/L	.	8A/)	.	8f#/L	.	.	.	.	.	.	.	8f#/L	.	.	.
.	.	.	.	8g/	ma-	.	8E/J)	.	8G/J	.	8g/J)	.	.	.	.	.	.	.	8g/J)	.	.	.
=27	=27	=27	=27	=27	=27	=27	=27	=27	=27	=27	=27	=27	=27	=27	=27	=27	=27	=27	=27	=27	=27	=27
2DD/)	.	2Dyy/)yy	.	8g/	-rzy-	.	8r	.	8r	.	8r	.	1r	.	1r	.	1r	.	4d/	.	1r	.
.	.	.	.	8g/	-ła	.	(8B/L	.	(8d/L	.	(8g/L	.	.	.	.	.	.	.	.	.	.	.
.	.	.	.	8f#/	o	.	8A/)	.	8c/)	.	8f#/)	.	.	.	.	.	.	.	4r	.	.	.
.	.	.	.	8g/	mi-	.	8G/J	.	8B/J	.	8g/J	.	.	.	.	.	.	.	.	.	.	.
2DD/	sf	2Dyy/	sfyy	(4.ee\	-łoś-	.	2A 2F#/	sf	2c/	sf	(4e/	sf	.	.	.	.	.	.	2r	.	.	.
.	.	.	.	.	.	.	.	.	.	.	4d/)	.	.	.	.	.	.	.	.	.	.	.
.	.	.	.	8dd\)	.	.	.	.	.	.	.	.	.	.	.	.	.	.	.	.	.	.
*	*	*	*	*	*	*	*	*	*	*	*	*	*clefF4	*	*	*	*	*	*	*	*	*
=28	=28	=28	=28	=28	=28	=28	=28	=28	=28	=28	=28	=28	=28	=28	=28	=28	=28	=28	=28	=28	=28	=28
*	*	*^	*	*	*	*	*	*	*	*	*	*	*	*	*^	*	*^	*	*^	*	*^	*
!	!	!	!	!	!	!	!	!	!	!	!	!	!	!	!	!	!	!LO:DY:b:t=pp	!	!	!	!	!	!	!	!	!
[1GGG	pp	2r	[1GG	pp	4g\	-ci.	.	(4G/	pp	(4.B/	pp	(8B/L	pp	[1GG [1GGG	.	2r	[1GG	pp	1r	2r	.	2r	1re	.	2r	1re	.
.	.	.	.	.	.	.	.	.	.	.	.	8d/J	.	.	.	.	.	.	.	.	.	.	.	.	.	.	.
.	.	.	.	.	4r	.	.	4B/	.	.	.	4.g/	.	.	.	.	.	.	.	.	.	.	.	.	.	.	.
.	.	.	.	.	.	.	.	.	.	8d/	.	.	.	.	.	.	.	.	.	.	.	.	.	.	.	.	.
!	!	!	!	!	!	!	!	!	!	!	!	!	!	!	!	!LO:TX:t=P:problem=błędne wyświetlanie łuku	!	!	!	!	!	!	!	!	!	!	!
.	.	(2D/	.	.	4r	.	.	4G/	.	4.B/	.	.	.	.	.	(<2D/	.	.	.	(>2d\	pp	4r	.	.	4r	.	.
.	.	.	.	.	.	.	.	.	.	.	.	8d/	.	.	.	.	.	.	.	.	.	.	.	.	.	.	.
.	.	.	.	.	8b\	I	.	4B/	.	.	.	[4g/	.	.	.	.	.	.	.	.	.	4b/	.	pp	4bb\	.	pp
.	.	.	.	.	8b\	świat	.	.	.	8d/	.	.	.	.	.	.	.	.	.	.	.	.	.	.	.	.	.
=29	=29	=29	=29	=29	=29	=29	=29	=29	=29	=29	=29	=29	=29	=29	=29	=29	=29	=29	=29	=29	=29	=29	=29	=29	=29	=29	=29
*	*	*	*	*	*	*	*	*	*	*	*	*	*	*^	*	*	*	*	*	*	*	*	*	*	*	*	*
1GGG_	.	2E/	1GG]	.	4.ee\	ca-	.	4A/	.	4.c#X/	.	8g/L]	.	2GG/]	1GGG]	.	2E/	1GG_	.	1rdd	2c#X\	.	(<4.b/	1r	.	(4.bb\	1r	.
.	.	.	.	.	.	.	.	.	.	.	.	8e/J	.	.	.	.	.	.	.	.	.	.	.	.	.	.	.	.
.	.	.	.	.	.	.	.	4G/	.	.	.	4.a/	.	.	.	.	.	.	.	.	.	.	.	.	.	.	.	.
.	.	.	.	.	8a\	-ły	.	.	.	8e/	.	.	.	.	.	.	.	.	.	.	.	.	8a/	.	.	8aa\	.	.
.	.	2F#/)	.	.	(4a\	to	.	4F#/	.	4.cn/	.	.	.	[<2D/	.	.	2F#/	.	.	.	2cn\)	.	4f#/	.	.	4ff#\	.	.
.	.	.	.	.	.	.	.	.	.	.	.	8d/	.	.	.	.	.	.	.	.	.	.	.	.	.	.	.	.
.	.	.	.	.	8b\)	.	.	4A/)	.	.	.	4f#/)	.	.	.	.	.	.	.	.	.	.	4d/)	.	.	4dd\)	.	.
.	.	.	.	.	8cc\	ma-	.	.	.	8d/)	.	.	.	.	.	.	.	.	.	.	.	.	.	.	.	.	.	.
*	*	*	*	*	*	*	*	*	*	*	*	*	*	*	*	*	*	*	*	*	*	*	*	*	*	*v	*v	*
!!LO:PB:g=original
=30	=30	=30	=30	=30	=30	=30	=30	=30	=30	=30	=30	=30	=30	=30	=30	=30	=30	=30	=30	=30	=30	=30	=30	=30	=30	=30	=30
!	!	!	!	!	!	!	!	!	!	!	!	!	!	!	!	!	!	!	!	!LO:TX:a:t=legierissimo.	!	!	!	!	!	!LO:TX:b:t=legierissimo.	!
1GGG_	.	2G/	[1GG	.	(4.dd\	-rze-	.	(4G/	.	(4.B/	.	8g/L	.	2D/]	[1GGG	.	4G/)	1GG_	.	(<16.dd/LL	4B\	.	4d/	1rd	.	(16.ddd\LL	.
.	.	.	.	.	.	.	.	.	.	.	.	.	.	.	.	.	.	.	.	32cc#X/K	.	.	.	.	.	32ccc#X\K	.
!	!	!	!	!	!	!	!	!	!	!	!	!	!	!	!	!	!	!	!	!	!	!	!	!	!	!LO:TUP:a:problem=brak klamry, numer	!
!	!	!	!	!	!	!	!	!	!	!	!	!	!	!	!	!	!	!	!	!LO:TUP:a:problem=brak klamry, numer	!	!	!	!	!	!	!
.	.	.	.	.	.	.	.	.	.	.	.	8d/J	.	.	.	.	.	.	.	24ee/	.	.	.	.	.	24eee\	.
.	.	.	.	.	.	.	.	.	.	.	.	.	.	.	.	.	.	.	.	24dd/	.	.	.	.	.	24ddd\	.
.	.	.	.	.	.	.	.	.	.	.	.	.	.	.	.	.	.	.	.	24b/JJ	.	.	.	.	.	24bb\JJ	.
.	.	.	.	.	.	.	.	8D/L	.	.	.	8g/	.	.	.	.	4r	.	.	8g/)	4r	.	4r	.	.	8gg\)	.
.	.	.	.	.	8b\)	.	.	8B/J	.	8d/	.	8r	.	.	.	.	.	.	.	8r	.	.	.	.	.	8r	.
!	!	!	!	!	!	!	!	!	!	!	!	!LO:TX:b:t=legier.	!	!	!	!	!	!	!	!	!	!	!	!	!	!	!
!	!	!	!	!	!	!	!	!	!	!	!	!	!	!	!	!	!LO:TX:t=P:problem=błędne wyświetlanie łuku	!	!	!	!	!	!	!	!	!	!
.	.	(2D/	.	.	8g\	-nie	.	4G/	.	8B/L	.	(16.dd\LL	.	[2GG/	.	.	(<2D/	.	.	2r	(>2d\	.	4r	.	.	4r	.
.	.	.	.	.	.	.	.	.	.	.	.	32cc\K	.	.	.	.	.	.	.	.	.	.	.	.	.	.	.
!	!	!	!	!	!	!	!	!	!	!	!	!LO:TUP:a	!	!	!	!	!	!	!	!	!	!	!	!	!	!	!
.	.	.	.	.	8r	.	.	.	.	8d/	.	24ee\	.	.	.	.	.	.	.	.	.	.	.	.	.	.	.
.	.	.	.	.	.	.	.	.	.	.	.	24dd\	.	.	.	.	.	.	.	.	.	.	.	.	.	.	.
.	.	.	.	.	.	.	.	.	.	.	.	24b\JJ	.	.	.	.	.	.	.	.	.	.	.	.	.	.	.
.	.	.	.	.	8b\	w zło-	.	4D/	.	8B/	.	8g/)	.	.	.	.	.	.	.	.	.	.	4b\	.	.	4bb\	.
.	.	.	.	.	8b\	-tą	.	.	.	8d/J	.	8r	.	.	.	.	.	.	.	.	.	.	.	.	.	.	.
=31	=31	=31	=31	=31	=31	=31	=31	=31	=31	=31	=31	=31	=31	=31	=31	=31	=31	=31	=31	=31	=31	=31	=31	=31	=31	=31	=31
1GGG_	.	2E/	1GG_	.	4.ee\	bar-	.	4A/	.	4.c#X/	.	8r	.	2GG/]	1GGG_	.	2E/	1GG_	.	1r	2c#X\	.	(<4.b/	1r	.	(4.bb\	.
.	.	.	.	.	.	.	.	.	.	.	.	(8e/	.	.	.	.	.	.	.	.	.	.	.	.	.	.	.
.	.	.	.	.	.	.	.	4G/	.	.	.	4.a/	.	.	.	.	.	.	.	.	.	.	.	.	.	.	.
.	.	.	.	.	8a\	-wą	.	.	.	8e/	.	.	.	.	.	.	.	.	.	.	.	.	8a/	.	.	8aa\	.
.	.	2F#/	.	.	(4aSSS\	szczęś-	.	4F#/	.	4.cn/	.	.	.	[2D/	.	.	2F#/	.	.	.	2cn\	.	4f#/	.	.	4ff#\	.
.	.	.	.	.	.	.	.	.	.	.	.	8d/	.	.	.	.	.	.	.	.	.	.	.	.	.	.	.
.	.	.	.	.	8b\)	.	.	4A/)	.	.	.	4f#/)	.	.	.	.	.	.	.	.	.	.	4d/)	.	.	4dd\)	.
.	.	.	.	.	8cc\	-cia	.	.	.	8d/)	.	.	.	.	.	.	.	.	.	.	.	.	.	.	.	.	.
*	*	*v	*v	*	*	*	*	*	*	*	*	*	*	*	*	*	*	*	*	*	*	*	*v	*v	*	*	*
=32	=32	=32	=32	=32	=32	=32	=32	=32	=32	=32	=32	=32	=32	=32	=32	=32	=32	=32	=32	=32	=32	=32	=32	=32	=32
2GGG/]	.	2G 2GG/])	.	2ee\	wstrzy-	.	(2G/	.	(4.B/	.	8r	.	2.D/]	2.GGG\]	.	4G/)	4GG\]	.	(<16.dd/LL	4B\)	.	4d/	.	(16.ddd\LL	.
.	.	.	.	.	.	.	.	.	.	.	.	.	.	.	.	.	.	.	32cc/K	.	.	.	.	32ccc\K	.
!	!	!	!	!	!	!	!	!	!	!	!	!	!	!	!	!	!	!	!LO:TUP:b	!	!	!	!	!LO:TUP:a	!
.	.	.	.	.	.	.	.	.	.	.	(8d/L	.	.	.	.	.	.	.	24ee/	.	.	.	.	24eee\	.
.	.	.	.	.	.	.	.	.	.	.	.	.	.	.	.	.	.	.	24dd/	.	.	.	.	24ddd\	.
.	.	.	.	.	.	.	.	.	.	.	.	.	.	.	.	.	.	.	24b/JJ)	.	.	.	.	24bb\JJ	.
.	.	.	.	.	.	.	.	.	.	.	8g/	.	.	.	.	4r	4r	.	8g/	4r	.	4r	.	8gg\)	.
.	.	.	.	.	.	.	.	.	8d/	.	8d/J	.	.	.	.	.	.	.	8r	.	.	.	.	8r	.
4r	.	4r	.	8dd\	-ło	.	8D/)	.	8G/)	.	8B/)	.	.	.	.	2r	2r	.	2r	2re	.	2r	.	2r	.
.	.	.	.	8r	.	.	8r	.	8r	.	8r	.	.	.	.	.	.	.	.	.	.	.	.	.	.
4DD\	f	4D\	f	8dd\	dziś	.	4d\	f	4d/	f	4dd\	f	4r	4ryy	.	.	.	.	.	.	.	.	.	.	.
.	.	.	.	8dd\	mię	.	.	.	.	.	.	.	.	.	.	.	.	.	.	.	.	.	.	.	.
*	*	*	*	*	*	*	*	*	*	*	*	*	*	*	*	*v	*v	*	*	*	*	*	*	*	*
*	*	*	*	*	*	*	*	*	*	*	*	*	*	*	*	*	*	*v	*v	*	*	*	*	*
*	*	*	*	*	*	*	*	*	*	*	*	*	*clefG2	*	*	*	*	*	*	*	*	*	*
=33	=33	=33	=33	=33	=33	=33	=33	=33	=33	=33	=33	=33	=33	=33	=33	=33	=33	=33	=33	=33	=33	=33	=33
!	!	!	!	!	!	!	!	!	!	!	!	!	!	!	!LO:DY:a:t=fp.	!	!	!	!	!	!	!	!
(4BB\	>	(4B\	>	(4gg\	smut-	.	(4B/	>	(4g/	>	(4gg\	>	2.d/	2.D\	fp	1r	.	1r	.	1r	.	1r	.
8AA\L	.	8A\L	.	8ff#\)	.	.	8A/L	.	8f#/L	.	8ff#\L	.	.	.	.	.	.	.	.	.	.	.	.
8GG\J	.	8G\J	.	8ee\	-nie	.	8G/J	.	8e/J	.	8ee\J	.	.	.	.	.	.	.	.	.	.	.	.
8FF#\)	]	8F#\)	.	4dd\	prze-	.	8F#/)	]	8d/)	]	8dd\)	]	.	.	.	.	.	.	.	.	.	.	.
8r	.	8r	]	.	.	.	8r	.	8r	p	8r	p	.	.	.	.	.	.	.	.	.	.	.
8GG#X\	p	8G#X\	p	4ee\	-bu-	.	8e\	p	8d/	.	8b\	.	4r	4ryy	.	.	.	.	.	.	.	.	.
8r	.	8r	.	.	.	.	8r	.	8r	.	8r	.	.	.	.	.	.	.	.	.	.	.	.
*	*	*	*	*	*	*	*	*	*	*	*	*	*v	*v	*	*	*	*	*	*	*	*	*
!!LO:PB:g=original
=34	=34	=34	=34	=34	=34	=34	=34	=34	=34	=34	=34	=34	=34	=34	=34	=34	=34	=34	=34	=34	=34	=34
2AA\	.	2Ayy\	.	[4ee\	-dzi-	.	2c\	.	2a/	.	(4ee\	.	1r	.	1r	.	1r	.	1r	.	1r	.
.	.	.	.	16ee\LL]	.	.	.	.	.	.	8a\)	.	.	.	.	.	.	.	.	.	.	.
.	.	.	.	16dd\	.	.	.	.	.	.	.	.	.	.	.	.	.	.	.	.	.	.
.	.	.	.	16cc\	.	.	.	.	.	.	8r	.	.	.	.	.	.	.	.	.	.	.
.	.	.	.	16b\JJ	.	.	.	.	.	.	.	.	.	.	.	.	.	.	.	.	.	.
!	!	!	!	!LO:TUP:problem=klamra łukowa	!	!	!	!	!	!	!	!	!	!	!	!	!	!	!	!	!	!
4r	.	4ryy	.	12a\	-ło	.	4r	.	4r	.	4r	.	.	.	.	.	.	.	.	.	.	.
.	.	.	.	12a\L	nie-	.	.	.	.	.	.	.	.	.	.	.	.	.	.	.	.	.
.	.	.	.	12b\J	.	.	.	.	.	.	.	.	.	.	.	.	.	.	.	.	.	.
!	!	!	!	!LO:TUP:problem=klamra łukowa	!	!	!	!	!	!	!	!	!	!	!	!	!	!	!	!	!	!
4CC/	.	4Cyy/	.	12cc\L	-zna-	.	4a\	.	[4e/	.	4a/	.	.	.	.	.	.	.	.	.	.	.
.	.	.	.	12a\J	.	.	.	.	.	.	.	.	.	.	.	.	.	.	.	.	.	.
.	.	.	.	12ee\	-ne	.	.	.	.	.	.	.	.	.	.	.	.	.	.	.	.	.
=35	=35	=35	=35	=35	=35	=35	=35	=35	=35	=35	=35	=35	=35	=35	=35	=35	=35	=35	=35	=35	=35	=35
(4CC#X/	.	(yy4C#Xyy/	.	4ee\	do-	.	(2g\	.	(4e/]	.	(4a#X/	.	2r	.	1r	.	2r	.	1r	.	1r	.
8DD/L	.	8Dyy/L	.	8g\	-tąd,	.	.	.	8d/L)	.	8b/L)	.	.	.	.	.	.	.	.	.	.	.
8EE-X/J)	.	8E-Xyy/J)yy	.	8a\	nie-	.	.	.	8c/J	.	8cc/J	.	.	.	.	.	.	.	.	.	.	.
8DD/	.	8Dyy/	.	(12b\L	-zna-	.	8d\)	.	8d/	.	8b/	.	8r	.	.	.	8r	.	.	.	.	.
.	.	.	.	12a\	.	.	.	.	.	.	.	.	.	.	.	.	.	.	.	.	.	.
*	*	*	*	*	*	*	*	*	*	*	*	*	*tremolo	*	*	*	*tremolo	*	*	*	*	*
!	!	!	!	!	!	!	!	!	!	!	!	!	!	!LO:DY:b:t=p	!	!	!	!LO:DY:b:t=p	!	!	!	!
8D|>\L	.	8dyy|>\L	.	.	.	.	8d|>\L	.	8dd|</L	.	8dd|</L	.	8dL 8D/	p	.	.	8gL 8B/	p	.	.	.	.
.	.	.	.	12g\J	.	.	.	.	.	.	.	.	.	.	.	.	.	.	.	.	.	.
8BB|>\	.	8Byy|>\	.	12dd\L	-...-	ne	8B|>\	.	8b|</	.	8b|</	.	8d 8D/	.	.	.	8g 8B/	.	.	.	.	.
.	.	.	.	12cc\J)	.	.	.	.	.	.	.	.	.	.	.	.	.	.	.	.	.	.
8GG|>\J	.	8Gyy|>\J	.	.	.	.	8G|>\J	.	8g|</J	.	8g|</J	.	8dJ 8D/	.	.	.	8gJ 8B/	.	.	.	.	.
.	.	.	.	12b\	-[[ne	nie-	.	.	.	.	.	.	.	.	.	.	.	.	.	.	.	.
*	*	*	*	*	*	*	*	*	*	*	*	*	*Xtremolo	*	*	*	*Xtremolo	*	*	*	*	*
=36	=36	=36	=36	=36	=36	=36	=36	=36	=36	=36	=36	=36	=36	=36	=36	=36	=36	=36	=36	=36	=36	=36
*	*	*	*	*	*	*	*	*	*	*	*	*	*^	*	*	*	*^	*	*	*	*	*
2DD\	sf	2Dyy\	sfyy	([4a\	do]]-	-zna-	2A/	sf	2c/	sf	2f#/	sf	2d/	2D\	sf	1r	.	2f#/	2c\	sf	1r	.	1r	.
.	.	.	.	16a\LL]	.	.	.	.	.	.	.	.	.	.	.	.	.	.	.	.	.	.	.	.
.	.	.	.	16g\	.	.	.	.	.	.	.	.	.	.	.	.	.	.	.	.	.	.	.	.
.	.	.	.	16f#\	.	.	.	.	.	.	.	.	.	.	.	.	.	.	.	.	.	.	.	.
.	.	.	.	16g\JJ	.	.	.	.	.	.	.	.	.	.	.	.	.	.	.	.	.	.	.	.
2r	.	2ryy	.	16a\LL	.	.	2r	.	2r	.	2r	.	2r	2ryy	.	.	.	2r	2ryy	.	.	.	.	.
.	.	.	.	16b\	.	.	.	.	.	.	.	.	.	.	.	.	.	.	.	.	.	.	.	.
.	.	.	.	16cc\	.	.	.	.	.	.	.	.	.	.	.	.	.	.	.	.	.	.	.	.
.	.	.	.	16cc#X\JJ	.	.	.	.	.	.	.	.	.	.	.	.	.	.	.	.	.	.	.	.
.	.	.	.	16dd\LL	.	.	.	.	.	.	.	.	.	.	.	.	.	.	.	.	.	.	.	.
.	.	.	.	16dd#X\	.	.	.	.	.	.	.	.	.	.	.	.	.	.	.	.	.	.	.	.
.	.	.	.	16ff#\	.	.	.	.	.	.	.	.	.	.	.	.	.	.	.	.	.	.	.	.
.	.	.	.	16ee\JJ	.	-ne	.	.	.	.	.	.	.	.	.	.	.	.	.	.	.	.	.	.
*	*	*	*	*	*	*	*	*	*	*	*	*	*v	*v	*	*	*	*	*	*	*	*	*	*
=37	=37	=37	=37	=37	=37	=37	=37	=37	=37	=37	=37	=37	=37	=37	=37	=37	=37	=37	=37	=37	=37	=37	=37
!LO:TX:b:t=ritar.	!	!LO:TX:t=P:problem=do t. 40 partia zapisana na pięciolinii niżej	!	!	!	!	!	!	!LO:TX:a:t=Colla Parte	!	!LO:TX:a:t=ritar.	!	!	!	!	!	!	!	!	!	!	!	!
!LO:TX:t=P:problem=do t. 40 partia zapisana na pięciolinii niżej	!	!	!	!	!	!	!	!	!	!	!	!	!	!	!	!	!	!	!	!	!	!	!
1DD;	.	(4D\	.	4dd\	-do-	.	4F#\	.	(4f#/	.	2.a/	.	1r	.	1r	.	2r	1re	.	1r	.	2r	.
!	!	!LO:TX:b:t=ritar.	!	!	!	!	!	!	!	!	!	!	!	!	!	!	!	!	!	!	!	!	!
.	.	4E\	.	4cc#X\)	.	.	4G\	.	4e/	.	.	.	.	.	.	.	.	.	.	.	.	.	.
.	.	2F#\)	.	(4ccn\	-tąd	.	4A\	.	4e-X/	.	.	.	.	.	.	.	4r	.	.	.	.	4r	.
.	.	.	.	8qqdd/L	.	.	.	.	.	.	.	.	.	.	.	.	.	.	.	.	.	.	.
!	!	!	!	!	!	!	!	!	!	!	!LO:TX:a:t=a tempo	!	!	!	!	!	!	!	!	!	!	!	!
.	.	.	.	8qqcc/J	.	.	.	.	.	.	.	.	.	.	.	.	.	.	.	.	.	.	.
!	!	!	!	!	!	!	!	!	!	!	!	!	!	!	!	!	!	!	!	!	!	!	!LO:DY:b:t=p
!	!	!	!	!	!	!	!	!	!	!	!	!	!	!	!	!	!	!	!LO:DY:b:t=p	!	!	!	!
.	.	.	.	8b\	.	.	4c\	.	4d/)	.	(<4dd\	.	.	.	.	.	(<4d/	.	p	.	.	(4dd\	p
.	.	.	.	8a\)	cier-	.	.	.	.	.	.	.	.	.	.	.	.	.	.	.	.	.	.
=38	=38	=38	=38	=38	=38	=38	=38	=38	=38	=38	=38	=38	=38	=38	=38	=38	=38	=38	=38	=38	=38	=38	=38
*	*	*	*	*	*	*	*	*	*	*	*	*	*^	*	*^	*	*	*	*	*	*	*	*
!	!	!LO:TX:a:t=a tempo.	!	!LO:TX:a:t=a tempo.	!	!	!	!	!	!	!	!	!	!	!	!	!	!	!	!	!	!	!	!LO:TX:a:t=atempo	!
2GGG/	.	4G\	.	4g\	-pie-	.	4B/	.	(8b/L	.	4bb\)	.	(2d/	(2.G\	.	(<4D/	1GG	.	4b/)	1rB	.	1r	.	4bb\)	.
.	.	.	.	.	.	.	.	.	8B/	.	.	.	.	.	.	.	.	.	.	.	.	.	.	.	.
.	.	2GG/	.	4g\	-nia.	.	8d/L	.	8d/	.	(8.bb\L	.	.	.	.	4F#/	.	.	(<8.b/L	.	.	.	.	(8.bb\L	.
.	.	.	.	.	.	.	8c/J	.	8a/J)	.	.	.	.	.	.	.	.	.	.	.	.	.	.	.	.
.	.	.	.	.	.	.	.	.	.	.	16aa\Jk	.	.	.	.	.	.	.	16a/Jk	.	.	.	.	16aa\Jk	.
*	*	*	*	*	*	*	*tremolo	*	*tremolo	*	*	*	*	*	*	*	*	*	*	*	*	*	*	*	*
4GGG/	.	.	.	2r	.	.	8B/L	.	(8g/L	.	4gg\	.	4g/	.	.	2G/)	.	.	4g/	.	.	.	.	4gg\	.
.	.	.	.	.	.	.	8d/	.	8d/	.	.	.	.	.	.	.	.	.	.	.	.	.	.	.	.
4GGG/	.	4GG/	.	.	.	.	8B/	.	8g/	.	4bb\)	.	4b/)	4g\)	.	.	.	.	4b/)	.	.	.	.	4bb\)	.
.	.	.	.	.	.	.	8d/J	.	8d/J)	.	.	.	.	.	.	.	.	.	.	.	.	.	.	.	.
*	*	*	*	*	*	*	*	*	*	*	*	*	*v	*v	*	*	*	*	*	*	*	*	*	*	*
!!LO:PB:g=original
=39	=39	=39	=39	=39	=39	=39	=39	=39	=39	=39	=39	=39	=39	=39	=39	=39	=39	=39	=39	=39	=39	=39	=39	=39
*	*	*	*	*	*	*	*	*	*	*	*	*	*	*	*	*	*	*	*	*	*	*	*^	*
(yy2GGG#X/	.	(2GG#X/	.	1r	.	.	(8B/L	.	(8b/L	.	(2ddd\	.	(2dd (2b\	.	(2G#X/	(2GG#X\	.	(2dd/	2b\	.	(2dd (2fn/	.	(2ddd\	1r	.
.	.	.	.	.	.	.	8d/	.	8d/	.	.	.	.	.	.	.	.	.	.	.	.	.	.	.	.
.	.	.	.	.	.	.	8B/	.	8b/	.	.	.	.	.	.	.	.	.	.	.	.	.	.	.	.
.	.	.	.	.	.	.	8d/J)	.	8d/J)	.	.	.	.	.	.	.	.	.	.	.	.	.	.	.	.
*	*	*	*	*	*	*	*Xtremolo	*	*Xtremolo	*	*	*	*	*	*	*	*	*	*	*	*	*	*	*	*
4AAAyy/)yy	.	4AA/)	.	.	.	.	4c\	.	(8c/L	.	4ccc\	.	8cc 8a\))	.	4A/)	4AA\)	.	4cc/	8a\	.	8cc 8e/))	.	4ccc\	.	.
.	.	.	.	.	.	.	.	.	8e/	.	.	.	8r	.	.	.	.	.	8r	.	8r	.	.	.	.
8BBByy/L	.	8BB/L	.	.	.	.	(8e-X\L	.	8e-X/	.	8bb\L)	.	4r	.	4r	4C\	.	8b/L	4r	.	4r	.	8bb\L	.	.
8CCyy/J	.	8C/J	.	.	.	.	8c\J)	.	8c/J)	.	8aa\J	.	.	.	.	.	.	8a/J)	.	.	.	.	8aa\J)	.	.
=40	=40	=40	=40	=40	=40	=40	=40	=40	=40	=40	=40	=40	=40	=40	=40	=40	=40	=40	=40	=40	=40	=40	=40	=40	=40
*	*	*	*	*	*	*	*	*	*	*	*	*	*	*	*	*	*	*	*	*	*^	*	*	*	*
4DD\	.	4D\	.	1r	.	.	(8B\L	.	(8B/L	.	4gg\	.	4r	.	4r	4D\	.	4g/	2r	.	2ryy	4r	.	4gg\	1re	.
.	.	.	.	.	.	.	8d\	.	8d/	.	.	.	.	.	.	.	.	.	.	.	.	.	.	.	.	.
2DD\	.	2D\	.	.	.	.	8B\	.	8b/	.	(8.gg\L	.	2d 2D/	.	8.B/L	2.D\	.	(8.g/L	.	.	.	(8.bL 8.g\	.	(8.gg\L	.	.
.	.	.	.	.	.	.	8d\J)	.	8d/J)	.	.	.	.	.	.	.	.	.	.	.	.	.	.	.	.	.
.	.	.	.	.	.	.	.	.	.	.	16aa\Jk	.	.	.	16c/Jk	.	.	16a/Jk	.	.	.	16ccJk 16a\	.	16aa\Jk	.	.
.	.	.	.	.	.	.	8B\L	.	(8dd/L	.	4bb\	.	.	.	4d/	.	.	4b/	4d\	.	4ryy	4dd 4b\	.	4bb\	.	.
.	.	.	.	.	.	.	8d\	.	8d/	.	.	.	.	.	.	.	.	.	.	.	.	.	.	.	.	.
4DD\	.	4D\	.	.	.	.	8c\	.	8e/	.	4aa\	.	4d 4D/	.	4c/	.	.	4a/	8e\L	.	8ee/L	4cc\	.	4aa\)	.	.
.	.	.	.	.	.	.	8d\J	.	8f#/J)	.	.	.	.	.	.	.	.	.	8f#\J	.	8ff#/J	.	.	.	.	.
*	*	*	*	*	*	*	*	*	*	*	*	*	*	*	*v	*v	*	*	*	*	*v	*v	*	*v	*v	*
*	*	*	*	*	*	*	*	*	*	*	*	*	*	*	*	*	*v	*v	*	*	*	*	*
=41||	=41||	=41||	=41||	=41||	=41||	=41||	=41||	=41||	=41||	=41||	=41||	=41||	=41||	=41||	=41||	=41||	=41||	=41||	=41||	=41||	=41||	=41||
!!!OMD: Allegro.
*M6/8	*	*M6/8	*	*M6/8	*	*	*M6/8	*	*M6/8	*	*M6/8	*	*M6/8	*	*M6/8	*	*M6/8	*	*M6/8	*	*M6/8	*
*	*	*	*	*	*	*	*	*	*	*	*	*	*	*	*^	*	*^	*	*^	*	*	*
8GG|>\L	pp	8Gyy|>\L	ppyy	4r	.	.	8B/	.	8g/	.	8gg\)	.	8g 8G/	.	8B/	8GG\	.	8g/)	8g\	.	8gg/)	8b\	.	8gg\	.
!	!	!	!	!	!	!	!	!	!	!	!	!LO:DY:b:t=pp	!	!	!	!	!	!	!	!	!	!	!	!	!
!	!	!	!	!	!	!	!	!	!	!LO:DY:b:t=pp	!	!	!	!	!	!	!	!	!	!	!	!	!	!	!
8GG|>\	.	8Gyy|>\	.	.	.	.	16D/LL	p	16B/LL	pp	16d/LL	pp	8r	.	8r	8ryy	.	8r	8ryy	.	8r	8ryy	.	8r	.
.	.	.	.	.	.	.	16D/	.	16A#X/	.	16c#X/	.	.	.	.	.	.	.	.	.	.	.	.	.	.
8DD\J	.	8Dyy\J	.	8r	.	.	16D/	.	16B/	.	16d/	.	8r	.	8r	2ryy	.	8r	2ryy	.	8r	2ryy	.	8r	.
.	.	.	.	.	.	.	16D/JJ	.	16An/JJ	.	16cn/JJ	.	.	.	.	.	.	.	.	.	.	.	.	.	.
*	*	*	*	*	*	*	*tremolo	*	*	*	*	*	*	*	*	*	*	*	*	*	*	*	*	*	*
8GG|>\L	.	8Gyy|>\L	.	8r	.	.	16D/LL	.	8G'/	.	8B'/	.	4r	.	4r	.	.	4r	.	.	4r	.	.	4r	.
.	.	.	.	.	.	.	16D/	.	.	.	.	.	.	.	.	.	.	.	.	.	.	.	.	.	.
8GG|>\	.	8Gyy|>\	.	8d/	Lecz	.	16D/	.	16B/LL	.	16d/LL	.	.	.	.	.	.	.	.	.	.	.	.	.	.
.	.	.	.	.	.	.	16D/	.	16A#X/	.	16c#X/	.	.	.	.	.	.	.	.	.	.	.	.	.	.
8DD|>\J	.	8Dyy|>\J	.	8g/	po-	.	16D/	.	16B/	.	16d/	.	8r	.	8r	.	.	8r	.	.	8r	.	.	8r	.
.	.	.	.	.	.	.	16D/JJ	.	16An/JJ	.	16cn/JJ	.	.	.	.	.	.	.	.	.	.	.	.	.	.
*	*	*	*	*	*	*	*	*	*	*	*	*	*	*	*v	*v	*	*	*	*	*v	*v	*	*	*
*	*	*	*	*	*	*	*	*	*	*	*	*	*	*	*	*	*v	*v	*	*	*	*	*
=42	=42	=42	=42	=42	=42	=42	=42	=42	=42	=42	=42	=42	=42	=42	=42	=42	=42	=42	=42	=42	=42	=42
!	!	!	!	!	!	!	!	!	!	!	!	!	!	!	!	!	!	!	!	!	!LO:TX:a:t=+	!
8GG|>\L	.	8Gyy|>\L	.	4b\	-cie-	.	16D/LL	.	8G|</	.	8B'/	.	2.r	.	2.r	.	2.r	.	2.r	.	2.rg	.
.	.	.	.	.	.	.	16D/	.	.	.	.	.	.	.	.	.	.	.	.	.	.	.
8GG|>\	.	8Gyy|>\	.	.	.	.	16D/	.	16B/LL	.	16d/LL	.	.	.	.	.	.	.	.	.	.	.
.	.	.	.	.	.	.	16D/	.	16A#X/	.	16c#X/	.	.	.	.	.	.	.	.	.	.	.
8DD|>\J	.	8Dyy|>\J	.	8f#\	-chy	.	16D/	.	16B/	.	16d/	.	.	.	.	.	.	.	.	.	.	.
.	.	.	.	.	.	.	16D/	.	16An/JJ	.	16cn/JJ	.	.	.	.	.	.	.	.	.	.	.
8GG|>\L	.	8Gyy|>\L	.	4g\	je-	.	16D/	.	8G|</L	.	8B'/L	.	.	.	.	.	.	.	.	.	.	.
.	.	.	.	.	.	.	16D/	.	.	.	.	.	.	.	.	.	.	.	.	.	.	.
8GG|>\	.	8Gyy|>\	.	.	.	.	16D/	.	8B|</	.	8d|< 8G/	.	.	.	.	.	.	.	.	.	.	.
.	.	.	.	.	.	.	16D/	.	.	.	.	.	.	.	.	.	.	.	.	.	.	.
8DD|>\J	.	8Dyy|>\J	.	8ee\	-go	.	16D/	.	8d|<J 8B/	.	8g|<J 8G/	.	.	.	.	.	.	.	.	.	.	.
.	.	.	.	.	.	.	16D/JJ	.	.	.	.	.	.	.	.	.	.	.	.	.	.	.
=43	=43	=43	=43	=43	=43	=43	=43	=43	=43	=43	=43	=43	=43	=43	=43	=43	=43	=43	=43	=43	=43	=43
8AA|>\L	.	8yy|>A\L	.	4dd\	sło-	.	16D/LL	.	8d|< 8A/	.	8f#|< 8A/	.	2.r	.	2.r	.	2.r	.	2.r	.	2.r	.
.	.	.	.	.	.	.	16D/	.	.	.	.	.	.	.	.	.	.	.	.	.	.	.
8AA|>\	.	8Ayy|>\	.	.	.	.	16D/	.	16f#/LL	.	16a/LL	.	.	.	.	.	.	.	.	.	.	.
.	.	.	.	.	.	.	16D/	.	16e#X/	.	16g#X/	.	.	.	.	.	.	.	.	.	.	.
8DD|>\J	.	8Dyy|>\J	.	8a\	-wo	.	16D/	.	16f#/	.	16a/	.	.	.	.	.	.	.	.	.	.	.
.	.	.	.	.	.	.	16D/	.	16en/JJ	.	16gn/JJ	.	.	.	.	.	.	.	.	.	.	.
8AA|>\L	.	8Ayy|>\L	.	8r	.	.	16D/	.	8d/	.	8f#/	.	.	.	.	.	.	.	.	.	.	.
.	.	.	.	.	.	.	16D/	.	.	.	.	.	.	.	.	.	.	.	.	.	.	.
8AA|>\	.	8Ayy|>\	.	8a\	przy-	.	16D/	.	16f#/LL	.	16a/LL	.	.	.	.	.	.	.	.	.	.	.
.	.	.	.	.	.	.	16D/	.	16e#X/	.	16g#X/	.	.	.	.	.	.	.	.	.	.	.
8DD|>\J	.	8Dyy|>\J	.	8b\	-krych	.	16D/	.	16f#/	.	16a/	.	.	.	.	.	.	.	.	.	.	.
.	.	.	.	.	.	.	16D/JJ	.	16en/JJ	.	16gn/JJ	.	.	.	.	.	.	.	.	.	.	.
!!LO:PB:g=original
=44	=44	=44	=44	=44	=44	=44	=44	=44	=44	=44	=44	=44	=44	=44	=44	=44	=44	=44	=44	=44	=44	=44
8AA|>\L	.	8Ayy|>\L	.	4dd\	cier-	.	16D/LL	.	8d/	.	8f#/	.	2.r	.	2.r	.	2.r	.	2.r	.	2.r	.
.	.	.	.	.	.	.	16D/	.	.	.	.	.	.	.	.	.	.	.	.	.	.	.
8AA|>\	.	8Ayy|>\	.	.	.	.	16D/	.	16f#/LL	.	16a/LL	.	.	.	.	.	.	.	.	.	.	.
.	.	.	.	.	.	.	16D/	.	16e#X/	.	16g#X/	.	.	.	.	.	.	.	.	.	.	.
8DD|>\J	.	8Dyy|>\J	.	8cc\	-pień	.	16D/	.	16f#/	.	16a/	.	.	.	.	.	.	.	.	.	.	.
.	.	.	.	.	.	.	16D/	.	16en/JJ	.	16gn/JJ	.	.	.	.	.	.	.	.	.	.	.
8FF#|>\L	.	8F#yy|>\L	.	4a\	go-	.	16D/	.	8d'/L	.	8f#/L	.	.	.	.	.	.	.	.	.	.	.
.	.	.	.	.	.	.	16D/	.	.	.	.	.	.	.	.	.	.	.	.	.	.	.
8FF#|>\	.	8F#yy|>\	.	.	.	.	16D/	.	8f#|< 8A/	.	8a|< 8d/	.	.	.	.	.	.	.	.	.	.	.
.	.	.	.	.	.	.	16D/	.	.	.	.	.	.	.	.	.	.	.	.	.	.	.
8DD|>\J	.	8Dyy|>\J	.	8f#\	-rycz	.	16D/	.	8f#|<J 8A/	.	8cc|<J 8d/	.	.	.	.	.	.	.	.	.	.	.
.	.	.	.	.	.	.	16D/JJ	.	.	.	.	.	.	.	.	.	.	.	.	.	.	.
=45	=45	=45	=45	=45	=45	=45	=45	=45	=45	=45	=45	=45	=45	=45	=45	=45	=45	=45	=45	=45	=45	=45
*	*	*	*	*	*	*	*	*	*	*	*	*	*tremolo	*	*tremolo	*	*	*	*	*	*	*
!LO:TX:t=P:problem=mixed beam	!	!LO:TX:t=P:problem=mixed beam	!	!	!	!	!	!	!	!	!	!	!	!	!	!	!	!	!	!	!	!
!	!	!	!	!	!	!	!	!	!	!	!	!	!	!LO:DY:b:t=p	!LO:TX:t=P:problem=u góry 6 kropek	!	!	!	!	!	!	!
8GGG|</L	.	8GGyy|</L	.	4g/	sło-	.	16d\LL	.	8g 8B'/	.	8b 8d|</	.	8d|<L 8D/	p	8BL 8D'\	p	8r	.	2.r	.	2.r	.
.	.	.	.	.	.	.	16d\	.	.	.	.	.	.	.	.	.	.	.	.	.	.	.
!	!	!	!	!	!	!	!	!	!	!	!	!	!	!	!	!	!	!LO:DY:a	!	!	!	!
8GG|>\	.	8Gyy|>\	.	.	.	.	16d\	.	16b/LL	.	16dd\LL	.	8d 8D/	.	8B 8D'\	.	(16dLL 16B/	p	.	.	.	.
.	.	.	.	.	.	.	16d\	.	16a#X/	.	16cc#X\	.	.	.	.	.	16c#X 16A#X/	.	.	.	.	.
8DD|>\J	.	8Dyy|>\J	.	8d/	-dzi	.	16d\	.	16b/	.	16dd\	.	8d 8D/	.	8B 8D'\	.	16d 16B/	.	.	.	.	.
.	.	.	.	.	.	.	16d\	.	16an/JJ	.	16ccn\JJ	.	.	.	.	.	16cnJJ 16An/)	.	.	.	.	.
!LO:TX:t=P:problem=mixed beam	!	!LO:TX:t=P:problem=mixed beam	!	!	!	!	!	!	!	!	!	!	!	!	!	!	!	!	!	!	!	!
8GGG|</L	.	8GGyy|</L	.	8r	.	.	16d\	.	8g/	.	8b\	.	8d 8D/	.	8B 8D'\	.	8B 8G'/	.	.	.	.	.
.	.	.	.	.	.	.	16d\	.	.	.	.	.	.	.	.	.	.	.	.	.	.	.
8GG|>\	.	8Gyy|>\	.	8d/	i	.	16d\	.	16b/LL	.	16dd\LL	.	8d 8D/	.	8B 8D'\	.	(16dLL 16B/	.	.	.	.	.
.	.	.	.	.	.	.	16d\	.	16a#X/	.	16cc#X\	.	.	.	.	.	16c#X 16A#X/	.	.	.	.	.
8DD|>\J	.	8Dyy|>\J	.	8g/	o	.	16d\	.	16b/	.	16dd\	.	8dJ 8D/	.	8BJ 8D'\	.	16d 16B/	.	.	.	.	.
.	.	.	.	.	.	.	16d\JJ	.	16an/JJ	.	16ccn\JJ	.	.	.	.	.	16cnJJ 16An/)	.	.	.	.	.
=46	=46	=46	=46	=46	=46	=46	=46	=46	=46	=46	=46	=46	=46	=46	=46	=46	=46	=46	=46	=46	=46	=46
!LO:TX:t=P:problem=mixed beam	!	!LO:TX:t=P:problem=mixed beam	!LO:HP:b:t=cres-cen-do.:ext2=cd	!	!	!	!	!	!	!	!	!	!	!	!	!	!	!	!	!	!	!
!	!	!	!	!	!	!	!	!LO:HP:b:t=cres-cen-do.:ext2=cd	!	!	!	!	!	!	!	!	!	!	!	!	!	!
8GGG|</L	.	8GGyy|</L	<	4b\	szczę-	.	16d\LL	<	8g/	.	8b\	.	8dL 8D/	.	8BL 8D\	.	8B 8G'/	.	2.r	.	2.r	.
.	.	.	.	.	.	.	16d\	.	.	.	.	.	.	.	.	.	.	.	.	.	.	.
!	!	!	!	!	!	!	!	!	!	!	!	!LO:HP:b:t=cres-cen-do.:ext2=cd	!	!	!	!LO:HP:b:t=cres-cen-do.:ext2=cd	!	!LO:HP:a:t=cres-cen-do.:ext2=cd	!	!	!	!
8GG|>\	.	8Gyy|>\	.	.	.	.	16d\	.	16b/LL	.	16dd\LL	<	8d 8D/	.	8B 8D\	<	(16dLL 16B/	<	.	.	.	.
.	.	.	.	.	.	.	16d\	.	16a#X/	.	16cc#X\	.	.	.	.	.	16c#X 16A#X/	.	.	.	.	.
8DD|>\J	.	8Dyy|>\J	.	8f#\	-ściu	.	16d\	.	16b/	.	16dd\	.	8d 8D/	.	8B 8D\	.	16d 16B/	.	.	.	.	.
.	.	.	.	.	.	.	16d\	.	16an/JJ	.	16ccn\JJ	.	.	.	.	.	16cnJJ 16An/)	.	.	.	.	.
!LO:TX:t=P:problem=mixed beam	!	!LO:TX:t=P:problem=mixed beam	!	!	!	!	!	!	!	!	!	!	!	!	!	!	!	!	!	!	!	!
8GGG|</L	.	8GGyy|</L	.	8g\L	myśl	.	16d\	.	8g/L	.	8b\L	.	8d 8D/	.	8B 8D\	.	8d 8B'/	.	.	.	.	.
.	.	.	.	.	.	.	16d\	.	.	.	.	.	.	.	.	.	.	.	.	.	.	.
8GG|>\	.	8Gyy|>\	.	8b\J	.	.	16d\	.	8b|< 8d/	.	8dd|>\	.	8d 8D/	.	8B 8D\	.	8dL 8B'/	.	.	.	.	.
.	.	.	.	.	.	.	16d\	.	.	.	.	.	.	.	.	.	.	.	.	.	.	.
8DD|>\J	.	8Dyy|>\J	.	8ee\	na	.	16d\	.	8b|<J 8d/	.	8gg|>\J	.	8dJ 8D/	.	8BJ 8D\	.	8gJ 8B'/	.	.	.	.	.
.	.	.	.	.	.	.	16d\JJ	.	.	.	.	.	.	.	.	.	.	.	.	.	.	.
=47	=47	=47	=47	=47	=47	=47	=47	=47	=47	=47	=47	=47	=47	=47	=47	=47	=47	=47	=47	=47	=47	=47
8DD|>\L	.	8Dyy|>\L	.	4dd\	no-	.	16d\LL	.	8dd|< 8d/	.	8ff#|>\	.	8dL 8D/	.	8AL 8F#\	.	8f# 8d'/	.	2.r	.	2.r	.
.	.	.	.	.	.	.	16d\	.	.	.	.	.	.	.	.	.	.	.	.	.	.	.
8AA|>\	.	8Ayy|>\	.	.	.	.	16d\	.	16ff#\LL	.	16aa\LL	.	8d 8D/	.	8A 8F#\	.	(16aLL 16f#/	.	.	.	.	.
.	.	.	.	.	.	.	16d\	.	16ee#X\	.	16gg#X\	.	.	.	.	.	16g#X 16e#X/	.	.	.	.	.
8DD|>\J	.	8Dyy|>\J	.	8a\	-wo,	.	16d\	.	16ff#\	.	16aa\	.	8d 8D/	.	8A 8F#\	.	16a 16f#/	.	.	.	.	.
.	.	.	.	.	.	.	16d\	.	16een\JJ	.	16ggn\JJ	.	.	.	.	.	16gnJJ 16en/)	.	.	.	.	.
8DD|>\L	.	8Dyy|>\L	.	8r	.	.	16d\	.	8dd\	.	8ff#\	.	8d 8D/	.	8A 8F#\	.	8f# 8d'/	.	.	.	.	.
.	.	.	.	.	.	.	16d\	.	.	.	.	.	.	.	.	.	.	.	.	.	.	.
8AA|>\	.	8Ayy|>\	.	8a\	w mo-	.	16d\	.	16ff#\LL	.	16aa\LL	.	8d 8D/	.	8A 8F#\	.	(16aLL 16f#/	.	.	.	.	.
.	.	.	.	.	.	.	16d\	.	16ee#X\	.	16gg#X\	.	.	.	.	.	16g#X 16e#X/	.	.	.	.	.
8DD|>\J	.	8Dyy|>\J	.	8b\	-jej	.	16d\	.	16ff#\	.	16aa\	.	8dJ 8D/	.	8AJ 8F#\	.	16a 16f#/	.	.	.	.	.
.	.	.	.	.	.	.	16d\JJ	.	16een\JJ	.	16ggn\JJ	.	.	.	.	.	16gnJJ 16en/)	.	.	.	.	.
=48	=48	=48	=48	=48	=48	=48	=48	=48	=48	=48	=48	=48	=48	=48	=48	=48	=48	=48	=48	=48	=48	=48
!	!	!	!	!	!	!	!	!	!	!	!	!	!	!	!	!	!	!	!	!	!LO:TX:t=P:problem=ten znak powinien być pod koniec taktu	!
8DD|>\L	.	8Dyy|>\L	.	4dd\	du-	.	16d\LL	.	8dd\	.	8ff#\	.	8dL 8D/	.	8AL 8F#\	.	8f# 8d'/	.	2.r	.	2.r	.
.	.	.	.	.	.	.	16d\	.	.	.	.	.	.	.	.	.	.	.	.	.	.	.
8AA|>\	.	8Ayy|>\	.	.	.	.	16d\	.	16ff#\LL	.	16aa\LL	.	8d 8D/	.	8A 8F#\	.	(16aLL 16f#/	.	.	.	.	.
.	.	.	.	.	.	.	16d\	.	16ee#X\	.	16gg#X\	.	.	.	.	.	16g#X 16e#X/	.	.	.	.	.
8DD|>\J	.	8Dyy|>\J	.	8cc\	-szy	.	16d\	.	16ff#\	.	16aa\	.	8d 8D/	.	8A 8F#\	.	16a 16f#/	.	.	.	.	.
.	.	.	.	.	.	.	16d\	.	16een\JJ	.	16ggn\JJ	.	.	.	.	.	16gnJJ 16en/)	.	.	.	.	.
8DD|>\L	.	8Dyy|>\L	.	8b\L	już	.	16d\	.	8dd\L	.	8ff#\L	.	8d 8D/	.	8A 8F#\	.	8f# 8d'/	.	.	.	.	.
.	.	.	.	.	.	.	16d\	.	.	.	.	.	.	.	.	.	.	.	.	.	.	.
8AA|>\	.	8Ayy|>\	.	8cc\J	.	.	16d\	.	8ff#|> 8a\	.	8aa|>\	.	8d 8D/	.	8A 8F#\	.	8aL 8f#'/	.	.	.	.	.
.	.	.	.	.	.	.	16d\	.	.	.	.	.	.	.	.	.	.	.	.	.	.	.
8DD|>\J	.	8Dyy|>\J	[[	8a\	się	.	16d\	.	8ff#|>J 8a\	.	8ccc|>\J	.	8dJ 8D/	.	8AJ 8F#\	.	8ccJ 8a'/	.	.	.	.	.
.	.	.	.	.	.	.	16d\JJ	.	.	.	.	.	.	.	.	.	.	.	.	.	.	.
*	*	*	*	*	*	*	*Xtremolo	*	*	*	*	*	*Xtremolo	*	*Xtremolo	*	*	*	*	*	*	*
!!LO:TX:a:t=θ
!!LO:PB:g=original
=49	=49	=49	=49	=49	=49	=49	=49	=49	=49	=49	=49	=49	=49	=49	=49	=49	=49	=49	=49	=49	=49	=49
*	*	*	*	*	*	*	*	*	*	*	*	*	*^	*	*^	*	*^	*	*^	*	*	*
!LO:TX:a:t=col cello.	!	!	!	!	!	!	!	!	!	!	!	!	!	!	!	!	!	!	!	!	!	!	!	!	!	!
8GGGyy/	fyy	8GG/	f	8g\	ro-	.	8g\	f	8gg 8b\	f	8bb'\	.	8r	8ryy	.	8r	8r	.	8r	8ryy	.	8r	8ryy	.	8r	.
*	*	*	*	*	*	*	*	*	*	*	*tremolo	*	*	*	*	*	*	*	*	*	*	*	*	*	*	*
!	!	!	!	!	!	!	!	!	!	!	!	!	!	!LO:TX:t=P:problem=błędne wyświetlanie ligatury	!	!	!	!	!	!LO:TX:t=P:problem=marcato między dolną a górną nutą	!	!	!	!	!	!
16GGyy\LL	sfyy	16G\LL	sf	8g\	-dzi,	.	16g\LL	sf	16bb\LL	sf	16dddLL 16dd^^\	f	[4d/	[>4d\	f	16G/LL	16G\LL	f	16bb/LL	[4dd^^>\	f	[4dd^^/	16b\LL	f	[4ddd^^\	f
16FF#yy\	.	16F#\	.	.	.	.	16f#\	.	16aa\	.	16ddd 16dd\	.	.	.	.	16F#/	16F#\	sf	16aa/	.	.	.	16a\	.	.	.
16GGyy\	.	16G\	.	8r	.	.	16g\	.	16bb\	.	16ddd 16dd\	.	.	.	.	16G/	16G\	.	16bb/	.	.	.	16b\	.	.	.
16FF#yy\JJ	.	16F#\JJ	.	.	.	.	16f#\JJ	.	16aa\JJ	.	16dddJJ 16dd\	.	.	.	.	16F#/JJ	16F#\JJ	.	16aa/JJ	.	.	.	16a\JJ	.	.	.
*	*	*	*	*	*	*	*	*	*	*	*Xtremolo	*	*	*	*	*	*	*	*	*	*	*	*	*	*	*
8EEyy|>\L	.	8E|>\L	.	8dd\L	i	.	8e|>\L	.	8gg\	.	8ddd 8dd\	.	8d/]	8d\]	.	8E|>/L	8E\L	.	8gg/	8dd\L]	.	8dd/]	8g\	.	8ddd\L]	.
8EEyy|>\	.	8E|>\	.	8b\J	.	.	8e|>\	.	8gg|>L 8b\	.	8bb|>\L	.	8g|>/L	8g\L	.	8E|>/	8E\	.	4ryy	8gg|> 8b\	.	8b|<L 8g/	4ryy	.	8bb|>\	.
8AAyy|>\J	.	8A|>\J	.	8cc#X\	jak	.	8a|>\J	.	8gg|>J 8a\	.	8ccc#X|>\J	.	8a|>/J	8g\J	.	8A|>/J	8A\J	.	.	8gg|>J 8a\	.	8cc|<J 8g/	.	.	8ccc#X|>\J	.
*	*	*	*	*	*	*	*	*	*	*	*	*	*	*	*	*	*	*	*v	*v	*	*	*	*	*	*
*	*	*	*	*	*	*	*	*	*	*	*	*	*	*	*	*	*	*	*	*	*v	*v	*	*	*
=50	=50	=50	=50	=50	=50	=50	=50	=50	=50	=50	=50	=50	=50	=50	=50	=50	=50	=50	=50	=50	=50	=50	=50	=50
8DDyy|>\L	.	8D|>\L	.	8dd\L	daw-	.	8d|>\L	.	8ff#|>L 8a\	.	8ddd|>\L	.	8a|>/L	8d\L	.	8D|>/L	8D\L	.	8ff#|>L 8a\	.	8dd|<L 8f#/	.	8ddd|>\L	.
8DDyy|>\	.	8D|>\	.	8a\J	.	.	8d|>\	.	8ffn|> 8a\	.	8aa|>\	.	8a|>/	8d\	.	8D|>/	8D\	.	8ffn|> 8dd\	.	8a|< 8fn/	.	8aa|>\	.
8GGyy|>\J	.	8G|>\J	.	8b\	-niej	.	8g|>\J	.	8ff|>\J	.	8bb|>\J	.	8g|>/J	8G\J	.	8G|>/J	8G\J	.	8ff|>J 8dd\	.	8b|<J 8f/	.	8bb|>\J	.
8CCyy|>\L	.	8C|>\L	.	8ccn\L	so-	.	8c|>\L	.	8ee|>\L	.	8ccc|>\L	.	8g|>/L	8G\L	.	8C|>/L	8C\L	.	8ee|>L 8cc\	.	8cc|<L 8e/	.	8ccc|>\L	.
8CCyy|>\	.	8C|>\	.	8g\J	.	.	8c|>\	.	8ee|>\	.	8gg|>\	.	8g|>/	8G\	.	8C|>/	8C\	.	8ee|> 8cc\	.	8g|< 8e/	.	8gg|>\	.
8FF#yy|>\J	.	8F#|>\J	.	8a\	-bie	.	8f#X|>\J	.	8ee|>\J	.	8aa|>\J	.	8g|>/J	8G\J	.	8F#|>/J	8F#\J	.	8ee|>J 8a\	.	8a|<J 8e/	.	8aa|>\J	.
=51	=51	=51	=51	=51	=51	=51	=51	=51	=51	=51	=51	=51	=51	=51	=51	=51	=51	=51	=51	=51	=51	=51	=51	=51
*	*	*	*	*	*	*	*	*	*	*	*	*	*	*	*	*	*	*	*^	*	*^	*	*	*
8BBByy/	.	8BB/	.	4b\	ma-	.	8B\	.	8dd#X|>\	.	8bb|>\	.	8r	8B\	.	8BB/	8BB\	.	8ryy	8dd#|>X|> 8b\	.	8b|< 8d#X/	8ryy	.	8bb|>\	.
*	*	*	*	*	*	*	*	*	*	*	*tremolo	*	*	*	*	*	*	*	*	*	*	*	*	*	*	*
16EEyy\LL	sfyy	16E\LL	sf	.	.	.	16e\LL	sf	16gg\LL	sf	16bbLL 16b^^\	.	[4B^^/	4B\	.	16E/LL	16E\LL	sf	4gg^^/	16g\LL	.	[4b^^/	16g\LL	.	[4bb^^\	.
16DDyy\	.	16D\	.	.	.	.	16d\	.	16ff#\	.	16bb 16b\	.	.	.	.	16D/	16D\	.	.	16f#\	.	.	16f#\	.	.	.
16EEyy\	.	16E\	.	8b\	-rzę	.	16e\	.	16gg\	.	16bb 16b\	.	.	.	.	16E/	16E\	.	.	16g\	.	.	16g\	.	.	.
16DDyy\JJ	.	16D\JJ	.	.	.	.	16d\JJ	.	16ff#\JJ	.	16bbJJ 16b\	.	.	.	.	16D/JJ	16D\JJ	.	.	16f#\JJ	.	.	16f#\JJ	.	.	.
*	*	*	*	*	*	*	*tremolo	*	*	*	*Xtremolo	*	*	*	*	*	*	*	*	*	*	*	*	*	*	*
8CCyy/L	.	8C/L	.	8ee\L	ślub-	.	8c\L	.	8ee\	.	8bb 8b\	.	8B/]	8B\	.	8C/	8C\	.	8ryy	8e\	.	8b] 8e/	4.ryy	.	8bb\L]	.
8CCyy/	.	8C/	.	8ff#\J	.	.	8c\	.	8ee|>\L	.	8gg|>\L	.	8r	8ryy	.	8C|>/L	8C\L	.	8gL 8e/	4ryy	.	8ee|>L 8g\	.	.	8gg|>\	.
8CCyy/J	.	8C/J	.	8ee\	-ne	.	8c\J	.	8ee|>\J	.	8aa|>\J	.	8r	8ryy	.	8C|>/J	8C\J	.	8aJ 8e/	.	.	8ee|>J 8a\	.	.	8aa|>\J	.
*	*	*	*	*	*	*	*Xtremolo	*	*	*	*	*	*	*	*	*	*	*	*	*	*	*	*	*	*	*
*	*	*	*	*	*	*	*	*	*	*	*	*	*	*	*	*	*	*	*v	*v	*	*	*	*	*	*
*	*	*	*	*	*	*	*	*	*	*	*	*	*	*	*	*	*	*	*	*	*v	*v	*	*	*
=52	=52	=52	=52	=52	=52	=52	=52	=52	=52	=52	=52	=52	=52	=52	=52	=52	=52	=52	=52	=52	=52	=52	=52	=52
*	*	*	*	*	*	*	*	*	*	*	*	*	*tremolo	*tremolo	*	*	*	*	*	*	*	*	*	*
8BBByy/L	.	8BB/L	.	8dd#X\L	wień-	.	8B|>\L	.	8dd#X|>\L	.	8bb|>\L	.	8B|>/L	8B\L	.	8BB|>/L	8BB\L	.	8bL 8d#X/	.	8dd#X|>L 8b\	.	8bb|>\L	.
8BBByy/	.	8BB/	.	8b\J	.	.	8B|>\	.	8b|>\	.	8ff#|>\	.	8B|>/	8B\	.	8BB|>/	8BB\	.	8f# 8d#/	.	8dd#|> 8f#\	.	8ff#|>\	.
8EEyy/J	.	8E/J	.	8ddn\	-ce	.	8e|>\J	.	8ddn|>\J	.	8gg#X|>\J	.	8B|>/J	8B\J	.	8E|>/J	8E\J	.	8g#XJ 8d#/	.	8ddn|>J 8g#X\	.	8gg#X|>\J	.
*	*	*	*	*	*	*	*	*	*	*	*	*	*Xtremolo	*Xtremolo	*	*	*	*	*	*	*	*	*	*
8AAAyy/L	.	8AA/L	.	8cc#X\L	i	.	8A|>\L	.	8cc#X|>\L	.	8aa|>\L	.	8A|>/L	8A\L	.	8AA|>/L	8AA\L	.	8aL 8c#X'/	.	8cc#X|>L 8a\	.	8aa|>\L	.
8AAAyy/	.	8AA/	.	8a\J	.	.	8A|>\	.	8a|>\	.	8ee|>\	.	8A|>/	8A\	.	8AA|>/	8AA\	.	8e 8c#'/	.	8cc#|> 8e\	.	8ee|>\	.
8DDyy/J	.	8D/J	.	8ccn\	oł-	.	8d|>\J	.	8ccn|>\J	.	8ff#|>\J	.	8A|>/J	8D\J	.	8D|>/J	8D\J	.	8f#J 8cn'/	.	8ccn|>J 8e\	.	8ff#|>\J	.
=53	=53	=53	=53	=53	=53	=53	=53	=53	=53	=53	=53	=53	=53	=53	=53	=53	=53	=53	=53	=53	=53	=53	=53	=53
8GGGyy/	.	8GG/	.	8b\	-ta-	.	8G/	.	8b\	.	8gg\	.	8G/	8G\	.	8GG|>/	8GG\	.	8g 8B/	.	8b 8g\	.	8gg\	.
!	!	!	!	!	!	!	!	!	!	!	!	!	!	!	!	!	!	!	!	!	!	!	!	!LO:DY:a
8ryy	.	8r	.	4gg\	-rze	.	8r	.	8r	.	8r	.	4g 4G^^/	8ryy	>	8ryy	4G 4GG^^\	>	4b 4B^^/	>	4b 4g^^\	>	4bb^^\	>
!	!	!	!LO:DY:b:t=p	!	!	!	!	!	!	!	!	!	!	!	!	!	!	!	!	!	!	!	!	!
8GGGyy/	pyy	8GG/	p	.	.	.	8B/	p	16gLL 16G/	p	(16b\LL	p	.	2ryy	.	2ryy	.	.	.	.	.	.	.	.
.	.	.	.	.	.	.	.	.	16gJJ 16G/	.	16b\JJ	.	.	.	.	.	.	.	.	.	.	.	.	.
*tremolo	*	*tremolo	*	*	*	*	*tremolo	*	*tremolo	*	*tremolo	*	*	*	*	*	*	*	*	*	*	*	*	*
!	!	!	!	!	!	!	!	!	!	!	!	!	!	!	!LO:DY:b:t=p	!	!	!	!	!	!	!	!	!
8AAAyy/L	<	8AA/L	<	8g\	i	.	8c\L	<	16gLL 16G/	<	16cc\LL	<	8gL 8G/	.	] p <	.	8A|>L 8AA\	] p	8ccL 8c|</	] p	8cc|>L 8g\	] p	8ccc|>\L	] p
.	.	.	.	.	.	.	.	.	16g 16G/	.	16cc\	.	.	.	.	.	.	.	.	.	.	.	.	.
8AAAyy/	.	8AA/	.	([4gg\	ma-	.	8c\	.	16g 16G/	.	16cc\	.	8g 8G'/	.	.	.	8A|> 8AA\	<	8cc 8c|</	<	8cc|> 8g\	<	8ccc|>\	.
.	.	.	.	.	.	.	.	.	16g 16G/	.	16cc\	.	.	.	.	.	.	.	.	.	.	.	.	.
8AAAyy/J	.	8AA/J	.	.	.	.	8c\J	.	16g 16G/	.	16cc\	.	8gJ 8G'/	.	.	.	8A|>J 8AA\	.	8ccJ 8c|</	.	8cc|>J 8g\	.	8ccc|>\J	<
.	.	.	.	.	.	.	.	.	16gJJ 16G/	.	16cc\JJ	.	.	.	.	.	.	.	.	.	.	.	.	.
*	*	*	*	*	*	*	*	*	*	*	*	*	*v	*v	*	*	*	*	*	*	*	*	*	*
=54	=54	=54	=54	=54	=54	=54	=54	=54	=54	=54	=54	=54	=54	=54	=54	=54	=54	=54	=54	=54	=54	=54	=54
*	*	*	*	*	*	*	*	*	*	*	*	*	*	*	*	*	*	*^	*	*^	*	*	*
8AAA#Xyy/L	.	8AA#X/L	.	16gg\LL]	.	.	8c#X\L	.	16gLL 16G/	.	16cc#X\LL	.	8gL 8G'/	.	4.ryy	8A#X|>L 8AA#X\	.	8cc#XL 8c#X|</	4.ryy	.	8cc#X|>L 8g\	4.ryy	.	8ccc#X|>\L	.
.	.	.	.	16ff#\	.	.	.	.	16g 16G/	.	16cc#\	.	.	.	.	.	.	.	.	.	.	.	.	.	.
8AAA#yy/	.	8AA#/	.	16aa\	.	.	8c#\	.	16g 16G/	.	16cc#\	.	8g 8G'/	.	.	8A#|> 8AA#\	.	8cc# 8c#|</	.	.	8cc#|> 8g\	.	.	8ccc#|>\	.
.	.	.	.	16gg\	.	.	.	.	16g 16G/	.	16cc#\	.	.	.	.	.	.	.	.	.	.	.	.	.	.
8AAA#yy/J	.	8AA#/J	.	16ff#\	.	.	8c#\J	.	16g 16G/	.	16cc#\	.	8gJ 8G'/	[	.	8A#|>J 8AA#\	.	8cc#J 8c#|</	.	.	8cc#|>J 8g\	.	.	8ccc#|>\J	.
.	.	.	.	16ee\JJ	.	.	.	.	16gJJ 16G/	.	16cc#\JJ)	.	.	.	.	.	.	.	.	.	.	.	.	.	.
*Xtremolo	*	*Xtremolo	*	*	*	*	*Xtremolo	*	*Xtremolo	*	*Xtremolo	*	*	*	*	*	*	*	*	*	*	*	*	*	*
!	!	!	!	!	!	!	!	!	!	!	!	!	!	!	!	!LO:TX:t=P:problem=błędne wyświetlanie łuku	!	!	!	!	!	!	!	!	!
8BBB/	[	(8BB/L	[	16dd\LL	.	.	(8d\L	[ f >	4g 4G/	[	(8dd\L	[ f >	4.d 4.G/	f > ]]	4.B/	(>8BB\L	[ f >	(<8dd/L	4d\	[ f >	(<8dd/L	4g\	[ f >	(8ddd\L	[ f >
.	.	.	.	16cc\	.	.	.	.	.	.	.	.	.	.	.	.	.	.	.	.	.	.	.	.	.
8r	.	8D/)	.	16b\	.	.	8B\)	.	.	.	8b\)	.	.	.	.	8D\	.	8b/)	.	.	8b/)	.	.	8bb\)	.
.	.	.	.	16a\J)	.	.	.	.	.	.	.	.	.	.	.	.	.	.	.	.	.	.	.	.	.
8r	.	8G/J	.	8g|>\J	-rzę	.	8G\J	]]	8r	.	8g\J	]]	.	.	.	8G\J)	.	8g/J	8r	.	8g/J	8r	.	8gg|>\J	]]
*	*	*	*	*	*	*	*	*	*	*	*	*	*	*	*v	*v	*	*	*	*	*v	*v	*	*	*
*	*	*	*	*	*	*	*	*	*	*	*	*	*	*	*	*	*v	*v	*	*	*	*	*
!!LO:PB:g=original
=55	=55	=55	=55	=55	=55	=55	=55	=55	=55	=55	=55	=55	=55	=55	=55	=55	=55	=55	=55	=55	=55	=55
!	!	!	!LO:DY:b:t=fp.	!	!	!	!	!	!	!	!	!	!	!	!	!	!	!	!	!	!	!
!	!LO:DY:b:t=fp.	!	!	!	!	!	!	!	!	!	!	!	!	!	!	!	!	!	!	!	!	!
(4CC\	fp	(4C\	fp	4ee\	ma-	.	(4e\	fp	4.g 4.G/	fp	(4cc\	fp >	2.r	.	2.r	]	2.r	]	2.r	]	2.r	.
8DD\)	.	8D\)	.	8dd\	-rzę	.	8d\)	.	.	.	8b\)	.	.	.	.	.	.	.	.	.	.	.
(4EE\	.	(4E\	.	4cc#X\	mi-	.	(4c#X\	.	(4g/	.	(4a#X\	]	.	.	.	.	.	.	.	.	.	.
8FF#\)	.	8F#\)	.	8ccn\	-łość	.	8cn\)	.	8d/)	.	8an\)	.	.	.	.	.	.	.	.	.	.	.
=56	=56	=56	=56	=56	=56	=56	=56	=56	=56	=56	=56	=56	=56	=56	=56	=56	=56	=56	=56	=56	=56	=56
(8GG\L	.	(8G\L	.	8b\L	mo-	.	(8B\L	.	4.g 4.G/	.	(8g\L	.	2.r	.	2.r	.	2.r	.	2.r	.	2.r	.
8CC\	.	8C\)	.	8ee\J	.	.	8e\	.	.	.	8cc\)	.	.	.	.	.	.	.	.	.	.	.
8DD\J)	.	8D\J	.	8dd\	-je	.	8d\J)	.	.	.	8b\J	.	.	.	.	.	.	.	.	.	.	.
(4EE\	.	(4E\	.	4cc#X\	szczę-	.	(4c#X\	.	(4g/	.	(4a#X/	.	.	.	.	.	.	.	.	.	.	.
8FF#\)	.	8F#|>\)	.	8ccn\	-ście,	.	8cn\)	.	8d/)	.	8an/)	.	.	.	.	.	.	.	.	.	.	.
=57	=57	=57	=57	=57	=57	=57	=57	=57	=57	=57	=57	=57	=57	=57	=57	=57	=57	=57	=57	=57	=57	=57
*	*	*	*	*	*	*	*	*	*	*	*	*	*	*	*^	*	*^	*	*	*	*	*
4GG|>\	.	(4d\	.	(4b\	ma-	.	8r	.	8r	.	8r	.	2.r	.	(4d/	4G\	p	(4.b/	4.g\	p	2.r	.	2.r	.
.	.	.	.	.	.	.	8gL 8B'\	.	8bL 8d|</	.	(8g\L	.	.	.	.	.	.	.	.	.	.	.	.	.
8r	.	8d#X\	.	8gg\)	-rzę	.	8gJ 8B'\	.	8b|</J	.	8gg\J)	.	.	.	8B/)	8r	.	.	.	.	.	.	.	.
4CC|</	.	8e\L	.	4a\	bli-	.	8r	.	8r	.	8r	.	.	.	4.c/	4C\	.	4.a/	4.e\	.	.	.	.	.
.	.	8c\	.	.	.	.	8eL 8c|>\	.	8aL 8e|</	.	(8a\L	.	.	.	.	.	.	.	.	.	.	.	.	.
8r	.	8A\J)	.	8ee\	-skie	.	8eJ 8c|>\	.	8aJ 8e|</	.	8ee\J)	.	.	.	.	8r	.	.	.	.	.	.	.	.
=58	=58	=58	=58	=58	=58	=58	=58	=58	=58	=58	=58	=58	=58	=58	=58	=58	=58	=58	=58	=58	=58	=58	=58	=58
4DD/	.	8B\L	.	8dd\L	me	.	8r	.	8r	.	8r	.	2.r	.	(<8B/L	4D\	.	4.g/	2.d\	.	2.r	.	2.r	.
.	.	8A#X\	.	8cc#X\J	.	.	8d|>\L	.	8dL 8G/	.	(8d/L	.	.	.	8A#X/	.	.	.	.	.	.	.	.	.
8r	.	8B\J	.	8dd\	za-	.	8d|>\J	.	8gJ 8G/	.	8g/J)	.	.	.	8B/J)	8r	.	.	.	.	.	.	.	.
8DD/	.	4d\	.	(8.ff#\L	-męś-	.	8d|>\	.	8f#/	.	8f#'/	.	.	.	(<4d/	4D\	.	4.f#/	.	.	.	.	.	.
8r	.	.	.	.	.	.	8r	.	8r	.	8r	.	.	.	.	.	.	.	.	.	.	.	.	.
.	.	.	.	16ee\Jk	.	.	.	.	.	.	.	.	.	.	.	.	.	.	.	.	.	.	.	.
8r	.	8c\	.	16cc#\LL)	.	.	8r	.	8r	.	8r	.	.	.	8c/)	8ryy	.	.	.	.	.	.	.	.
.	.	.	.	16a\JJ	.	.	.	.	.	.	.	.	.	.	.	.	.	.	.	.	.	.	.	.
=59	=59	=59	=59	=59	=59	=59	=59	=59	=59	=59	=59	=59	=59	=59	=59	=59	=59	=59	=59	=59	=59	=59	=59	=59
*	*	*	*	*	*	*	*tremolo	*	*	*	*	*	*	*	*	*	*	*	*	*	*	*	*	*
8GG|>\L	p	8B\	.	4g\	-cie.	.	16D/LL	p	8r	.	8r	.	2.r	.	8B/	8G\	.	8g/)	8B\	.	2.r	.	2.r	.
.	.	.	.	.	.	.	16D/	.	.	.	.	.	.	.	.	.	.	.	.	.	.	.	.	.
8GG|>\	.	8G|>\L	.	.	.	.	16D/	.	16B/LL	p	16dLL 16B/	p	.	.	8r	8ryy	.	8r	8ryy	.	.	.	.	.
.	.	.	.	.	.	.	16D/	.	16A#X/	.	16c#X 16A/	.	.	.	.	.	.	.	.	.	.	.	.	.
8DD|>\J	.	8D|>\J	.	8r	.	.	16D/	.	16B/	.	16d/	.	.	.	8r	2ryy	.	8r	2ryy	.	.	.	.	.
.	.	.	.	.	.	.	16D/	.	16An/JJ	.	16cn/JJ	.	.	.	.	.	.	.	.	.	.	.	.	.
*rep	*	*	*	*	*	*	*	*	*	*	*	*	*	*	*	*	*	*	*	*	*	*	*	*
!	!	!LO:TX:a:t=col CB.	!	!	!	!	!	!	!	!	!	!	!	!	!	!	!	!	!	!	!	!	!	!
8GG|>\L	.	8Gyy|>\L	.	8r	.	.	16D/	.	8G'/	.	8B'/	.	.	.	4r	.	.	4r	.	.	.	.	.	.
.	.	.	.	.	.	.	16D/	.	.	.	.	.	.	.	.	.	.	.	.	.	.	.	.	.
8GG|>\	.	8Gyy|>\	.	8d/	Tak,	.	16D/	.	16B/LL	.	16d/LL	.	.	.	.	.	.	.	.	.	.	.	.	.
.	.	.	.	.	.	.	16D/	.	16A#X/	.	16c#X/	.	.	.	.	.	.	.	.	.	.	.	.	.
8DD|>\J	.	8Dyy|>\J	.	8g/	po-	.	16D/	.	16B/	.	16d/	.	.	.	8r	.	.	8r	.	.	.	.	.	.
.	.	.	.	.	.	.	16D/JJ	.	16An/JJ	.	16cn/JJ	.	.	.	.	.	.	.	.	.	.	.	.	.
*	*	*	*	*	*	*	*	*	*	*	*	*	*	*	*v	*v	*	*	*	*	*	*	*	*
*Xrep	*	*	*	*	*	*	*	*	*	*	*	*	*	*	*	*	*	*	*	*	*	*	*
*	*	*	*	*	*	*	*	*	*	*	*	*	*	*	*	*	*v	*v	*	*	*	*	*
!!LO:PB:g=original
=60	=60	=60	=60	=60	=60	=60	=60	=60	=60	=60	=60	=60	=60	=60	=60	=60	=60	=60	=60	=60	=60	=60
!!LO:TX:a:t=come sopra. pag&colon;\n + - θ:note=w t. 60-66 w partiach instrumentów dętych (fl, ob, cl in C, fag, cor in G) powtórka t. 43-49
*rep	*	*	*	*	*	*	*	*	*	*	*	*	*	*	*	*	*	*	*	*	*	*
!	!	!	!	!	!	!	!LO:TX:t=P:problem=w t. 60-66 powtórka t. 43-49	!	!LO:TX:t=P:problem=w t. 60-66 powtórka t. 43-49	!	!LO:TX:t=P:problem=w t. 60-66 powtórka t. 43-49	!	!LO:TX:t=P:problem=w t. 60-66 powtórka t. 43-49	!	!LO:TX:t=P:problem=w t. 60-66 powtórka t. 43-49	!	!LO:TX:t=P:problem=w t. 60-66 powtórka t. 43-49	!	!LO:TX:t=P:problem=w t. 60-66 powtórka t. 43-49	!	!LO:TX:t=P:problem=w t. 60-66 powtórka t. 43-49	!
8GG|>\L	p	8Gyy|>\L	pyy	4b\	-cie-	.	16D/LL	.	8G|</	.	8B|<'/	.	2.r	.	2.r	.	2.r	.	2.r	.	2.rg	.
.	.	.	.	.	.	.	16D/	.	.	.	.	.	.	.	.	.	.	.	.	.	.	.
8GG|>\	.	8Gyy|>\	.	.	.	.	16D/	.	16B/LL	.	16d/LL	.	.	.	.	.	.	.	.	.	.	.
.	.	.	.	.	.	.	16D/	.	16A#X/	.	16c#X/	.	.	.	.	.	.	.	.	.	.	.
8DD|>\J	.	8Dyy|>\J	.	8f#\	-chy	.	16D/	.	16B/	.	16d/	.	.	.	.	.	.	.	.	.	.	.
.	.	.	.	.	.	.	16D/	.	16An/JJ	.	16cn/JJ	.	.	.	.	.	.	.	.	.	.	.
8GG|>\L	.	8Gyy|>\L	.	4g\	je-	.	16D/	.	8G|</L	.	8B'/L	.	.	.	.	.	.	.	.	.	.	.
.	.	.	.	.	.	.	16D/	.	.	.	.	.	.	.	.	.	.	.	.	.	.	.
8GG|>\	.	8Gyy|>\	.	.	.	.	16D/	.	8B|</	.	8d|< 8G/	.	.	.	.	.	.	.	.	.	.	.
.	.	.	.	.	.	.	16D/	.	.	.	.	.	.	.	.	.	.	.	.	.	.	.
8DD|>\J	.	8Dyy|>\J	.	8ee\	-go	.	16D/	.	8d|<J 8B/	.	8g|<J 8G/	.	.	.	.	.	.	.	.	.	.	.
.	.	.	.	.	.	.	16D/JJ	.	.	.	.	.	.	.	.	.	.	.	.	.	.	.
*Xrep	*	*	*	*	*	*	*	*	*	*	*	*	*	*	*	*	*	*	*	*	*	*
=61	=61	=61	=61	=61	=61	=61	=61	=61	=61	=61	=61	=61	=61	=61	=61	=61	=61	=61	=61	=61	=61	=61
8AA|>\L	.	8Ayy|>\L	.	4dd\	sło-	.	16D/LL	.	8d|< 8A/	.	8f#|< 8A/	.	2.r	.	2.r	.	2.r	.	2.r	.	2.r	.
.	.	.	.	.	.	.	16D/	.	.	.	.	.	.	.	.	.	.	.	.	.	.	.
8AA|>\	.	8Ayy|>\	.	.	.	.	16D/	.	16f#/LL	.	16a/LL	.	.	.	.	.	.	.	.	.	.	.
.	.	.	.	.	.	.	16D/	.	16e#X/	.	16g#X/	.	.	.	.	.	.	.	.	.	.	.
8DD|>\J	.	8Dyy|>\J	.	8a\	-wo	.	16D/	.	16f#/	.	16a/	.	.	.	.	.	.	.	.	.	.	.
.	.	.	.	.	.	.	16D/	.	16en/JJ	.	16gn/JJ	.	.	.	.	.	.	.	.	.	.	.
*rep	*	*	*	*	*	*	*	*	*	*	*	*	*	*	*	*	*	*	*	*	*	*
8AA|>\L	.	8Ayy|>\L	.	8r	.	.	16D/	.	8d/	.	8f#/	.	.	.	.	.	.	.	.	.	.	.
.	.	.	.	.	.	.	16D/	.	.	.	.	.	.	.	.	.	.	.	.	.	.	.
8AA|>\	.	8Ayy|>\	.	8a\	przy-	.	16D/	.	16f#/LL	.	16a/LL	.	.	.	.	.	.	.	.	.	.	.
.	.	.	.	.	.	.	16D/	.	16e#X/	.	16g#X/	.	.	.	.	.	.	.	.	.	.	.
8DD|>\J	.	8Dyy|>\J	.	8b\	-krych	.	16D/	.	16f#/	.	16a/	.	.	.	.	.	.	.	.	.	.	.
.	.	.	.	.	.	.	16D/JJ	.	16en/JJ	.	16gn/JJ	.	.	.	.	.	.	.	.	.	.	.
*Xrep	*	*	*	*	*	*	*	*	*	*	*	*	*	*	*	*	*	*	*	*	*	*
=62	=62	=62	=62	=62	=62	=62	=62	=62	=62	=62	=62	=62	=62	=62	=62	=62	=62	=62	=62	=62	=62	=62
*rep	*	*	*	*	*	*	*	*	*	*	*	*	*	*	*	*	*	*	*	*	*	*
8AA|>\L	.	8Ayy|>\L	.	4dd\	u-	.	16D/LL	.	8d/	.	8f#/	.	2.r	.	2.r	.	2.r	.	2.r	.	2.r	.
.	.	.	.	.	.	.	16D/	.	.	.	.	.	.	.	.	.	.	.	.	.	.	.
8AA|>\	.	8Ayy|>\	.	.	.	.	16D/	.	16f#/LL	.	16a/LL	.	.	.	.	.	.	.	.	.	.	.
.	.	.	.	.	.	.	16D/	.	16e#X/	.	16g#X/	.	.	.	.	.	.	.	.	.	.	.
8DD|>\J	.	8Dyy|>\J	.	8cc\	-czuć	.	16D/	.	16f#/	.	16a/	.	.	.	.	.	.	.	.	.	.	.
.	.	.	.	.	.	.	16D/	.	16en/JJ	.	16gn/JJ	.	.	.	.	.	.	.	.	.	.	.
*Xrep	*	*	*	*	*	*	*	*	*	*	*	*	*	*	*	*	*	*	*	*	*	*
8FF#|>\L	.	8F#yy|>\L	.	4a\	go-	.	16D/	.	8d'/L	.	8f#/L	.	.	.	.	.	.	.	.	.	.	.
.	.	.	.	.	.	.	16D/	.	.	.	.	.	.	.	.	.	.	.	.	.	.	.
8FF#|>\	.	8F#yy|>\	.	.	.	.	16D/	.	8f#|< 8A/	.	8a|< 8d/	.	.	.	.	.	.	.	.	.	.	.
.	.	.	.	.	.	.	16D/	.	.	.	.	.	.	.	.	.	.	.	.	.	.	.
8DD|>\J	.	8Dyy|>\J	.	8f#\	-rycz	.	16D/	.	8f#|<J 8A/	.	8cc|<J 8d/	.	.	.	.	.	.	.	.	.	.	.
.	.	.	.	.	.	.	16D/JJ	.	.	.	.	.	.	.	.	.	.	.	.	.	.	.
=63	=63	=63	=63	=63	=63	=63	=63	=63	=63	=63	=63	=63	=63	=63	=63	=63	=63	=63	=63	=63	=63	=63
*	*	*	*	*	*	*	*	*	*	*	*	*	*tremolo	*	*tremolo	*	*	*	*	*	*	*
!LO:TX:t=P:problem=mixed beam	!LO:DY:a	!LO:TX:t=P:problem=mixed beam	!LO:DY:a	!	!	!	!	!	!	!	!	!	!	!	!LO:TX:t=P:problem=u góry 6 kropek	!	!	!	!	!	!	!
8GGG|</L	.	8GGyy|</L	.	4g/	sło-	.	16d\LL	.	8g 8B'/	.	8b 8d|</	.	8d|<L 8D/	p	8BL 8D'\	p	8r	.	2.r	.	2.r	.
.	.	.	.	.	.	.	16d\	.	.	.	.	.	.	.	.	.	.	.	.	.	.	.
!	!	!	!	!	!	!	!	!	!	!	!	!	!	!	!	!	!	!LO:DY:a	!	!	!	!
8GG|>\	.	8Gyy|>\	.	.	.	.	16d\	.	16b/LL	.	16dd\LL	.	8d 8D/	.	8B 8D'\	.	(16dLL 16B/	p	.	.	.	.
.	.	.	.	.	.	.	16d\	.	16a#X/	.	16cc#X\	.	.	.	.	.	16c#X 16A#X/	.	.	.	.	.
8DD|>\J	.	8Dyy|>\J	.	8d/	-dzi	.	16d\	.	16b/	.	16dd\	.	8d 8D/	.	8B 8D'\	.	16d 16B/	.	.	.	.	.
.	.	.	.	.	.	.	16d\	.	16an/JJ	.	16ccn\JJ	.	.	.	.	.	16cnJJ 16An/)	.	.	.	.	.
*rep	*	*	*	*	*	*	*	*	*	*	*	*	*	*	*	*	*	*	*	*	*	*
!LO:TX:t=P:problem=mixed beam	!	!LO:TX:t=P:problem=mixed beam	!	!	!	!	!	!	!	!	!	!	!	!	!	!	!	!	!	!	!	!
8GGG|</L	.	8GGyy|</L	.	8r	.	.	16d\	.	8g/	.	8b\	.	8d 8D/	.	8B 8D'\	.	8B 8G'/	.	.	.	.	.
.	.	.	.	.	.	.	16d\	.	.	.	.	.	.	.	.	.	.	.	.	.	.	.
8GG|>\	.	8Gyy|>\	.	8d/	i	.	16d\	.	16b/LL	.	16dd\LL	.	8d 8D/	.	8B 8D'\	.	(16dLL 16B/	.	.	.	.	.
.	.	.	.	.	.	.	16d\	.	16a#X/	.	16cc#X\	.	.	.	.	.	16c#X 16A#X/	.	.	.	.	.
8DD|>\J	.	8Dyy|>\J	.	8g/	o	.	16d\	.	16b/	.	16dd\	.	8dJ 8D/	.	8BJ 8D'\	.	16d 16B/	.	.	.	.	.
.	.	.	.	.	.	.	16d\JJ	.	16an/JJ	.	16ccn\JJ	.	.	.	.	.	16cnJJ 16An/)	.	.	.	.	.
*Xrep	*	*	*	*	*	*	*	*	*	*	*	*	*	*	*	*	*	*	*	*	*	*
=64	=64	=64	=64	=64	=64	=64	=64	=64	=64	=64	=64	=64	=64	=64	=64	=64	=64	=64	=64	=64	=64	=64
*rep	*	*	*	*	*	*	*	*	*	*	*	*	*	*	*	*	*	*	*	*	*	*
!LO:TX:t=P:problem=mixed beam	!	!LO:TX:t=P:problem=mixed beam	!	!	!	!	!	!	!	!	!	!	!	!	!	!	!	!	!	!	!	!
8GGG|</L	.	8GGyy|</L	.	4b\	szczę-	.	16d\LL	.	8g/	.	8b\	.	8dL 8D/	.	8BL 8D\	.	8B 8G'/	.	2.r	.	2.r	.
.	.	.	.	.	.	.	16d\	.	.	.	.	.	.	.	.	.	.	.	.	.	.	.
!	!	!	!LO:HP:b:t=cres-cen-do:ext2=cd	!	!	!	!	!LO:HP:t=cres-cen-do:ext2=cd	!	!	!	!LO:HP:t=cres-cen-do:ext2=cd	!	!	!	!LO:HP:b:t=cres-cen-do:ext2=cd	!	!LO:HP:a:t=cres-cen-do:ext2=cd	!	!	!	!
8GG|>\	.	8Gyy|>\	<	.	.	.	16d\	<	16b/LL	.	16dd\LL	<	8d 8D/	.	8B 8D\	<	(16dLL 16B/	<	.	.	.	.
.	.	.	.	.	.	.	16d\	.	16a#X/	.	16cc#X\	.	.	.	.	.	16c#X 16A#X/	.	.	.	.	.
8DD|>\J	.	8Dyy|>\J	.	8f#\	-ściu	.	16d\	.	16b/	.	16dd\	.	8d 8D/	.	8B 8D\	.	16d 16B/	.	.	.	.	.
.	.	.	.	.	.	.	16d\	.	16an/JJ	.	16ccn\JJ	.	.	.	.	.	16cnJJ 16An/)	.	.	.	.	.
!LO:TX:t=P:problem=mixed beam	!	!LO:TX:t=P:problem=mixed beam	!	!	!	!	!	!	!	!	!	!	!	!	!	!	!	!	!	!	!	!
8GGG|</L	.	8GGyy|</L	.	8g\L	myśl	.	16d\	.	8g/L	.	8b\L	.	8d 8D/	.	8B 8D\	.	8d 8B'/	.	.	.	.	.
.	.	.	.	.	.	.	16d\	.	.	.	.	.	.	.	.	.	.	.	.	.	.	.
8GG|>\	.	8Gyy|>\	.	8b\J	.	.	16d\	.	8b|< 8d/	.	8dd|>\	.	8d 8D/	.	8B 8D\	.	8dL 8B'/	.	.	.	.	.
.	.	.	.	.	.	.	16d\	.	.	.	.	.	.	.	.	.	.	.	.	.	.	.
8DD|>\J	.	8Dyy|>\J	.	8ee\	na	.	16d\	.	8b|<J 8d/	.	8gg|>\J	.	8dJ 8D/	.	8BJ 8D\	.	8gJ 8B'/	.	.	.	.	.
.	.	.	.	.	.	.	16d\JJ	.	.	.	.	.	.	.	.	.	.	.	.	.	.	.
*Xrep	*	*	*	*	*	*	*	*	*	*	*	*	*	*	*	*	*	*	*	*	*	*
=65	=65	=65	=65	=65	=65	=65	=65	=65	=65	=65	=65	=65	=65	=65	=65	=65	=65	=65	=65	=65	=65	=65
8DD|>\L	.	8Dyy|>\L	.	4dd\	no-	.	16d\LL	.	8dd|< 8d/	.	8ff#|>\	.	8dL 8D/	.	8AL 8F#\	.	8f# 8d'/	.	2.r	.	2.r	.
.	.	.	.	.	.	.	16d\	.	.	.	.	.	.	.	.	.	.	.	.	.	.	.
8AA|>\	.	8Ayy|>\	.	.	.	.	16d\	.	16ff#\LL	.	16aa\LL	.	8d 8D/	.	8A 8F#\	.	(16aLL 16f#/	.	.	.	.	.
.	.	.	.	.	.	.	16d\	.	16ee#X\	.	16gg#X\	.	.	.	.	.	16g#X 16e#X/	.	.	.	.	.
8DD|>\J	.	8Dyy|>\J	.	8a\	-wo	.	16d\	.	16ff#\	.	16aa\	.	8d 8D/	.	8A 8F#\	.	16a 16f#/	.	.	.	.	.
.	.	.	.	.	.	.	16d\	.	16een\JJ	.	16ggn\JJ	.	.	.	.	.	16gnJJ 16en/)	.	.	.	.	.
*rep	*	*	*	*	*	*	*	*	*	*	*	*	*	*	*	*	*	*	*	*	*	*
8DD|>\L	.	8Dyy|>\L	.	8r	.	.	16d\	.	8dd\	.	8ff#\	.	8d 8D/	.	8A 8F#\	.	8f# 8d'/	.	.	.	.	.
.	.	.	.	.	.	.	16d\	.	.	.	.	.	.	.	.	.	.	.	.	.	.	.
8AA|>\	.	8Ayy|>\	.	8a\	w mo-	.	16d\	.	16ff#\LL	.	16aa\LL	.	8d 8D/	.	8A 8F#\	.	(16aLL 16f#/	.	.	.	.	.
.	.	.	.	.	.	.	16d\	.	16ee#X\	.	16gg#X\	.	.	.	.	.	16g#X 16e#X/	.	.	.	.	.
8DD|>\J	.	8Dyy|>\J	.	8b\	-jej	.	16d\	.	16ff#\	.	16aa\	.	8dJ 8D/	.	8AJ 8F#\	.	16a 16f#/	.	.	.	.	.
.	.	.	.	.	.	.	16d\JJ	.	16een\JJ	.	16ggn\JJ	.	.	.	.	.	16gnJJ 16en/)	.	.	.	.	.
*Xrep	*	*	*	*	*	*	*	*	*	*	*	*	*	*	*	*	*	*	*	*	*	*
!!LO:PB:g=original
=66	=66	=66	=66	=66	=66	=66	=66	=66	=66	=66	=66	=66	=66	=66	=66	=66	=66	=66	=66	=66	=66	=66
8DD|>\L	.	8Dyy|>\L	.	4dd\	du-	.	16d\LL	.	8dd\	.	8ff#\	.	8dL 8D/	.	8AL 8F#\	.	8f# 8d'/	.	2.r	.	2.r	.
.	.	.	.	.	.	.	16d\	.	.	.	.	.	.	.	.	.	.	.	.	.	.	.
8AA|>\	.	8Ayy|>\	.	.	.	.	16d\	.	16ff#\LL	.	16aa\LL	.	8d 8D/	.	8A 8F#\	.	(16aLL 16f#/	.	.	.	.	.
.	.	.	.	.	.	.	16d\	.	16ee#X\	.	16gg#X\	.	.	.	.	.	16g#X 16e#X/	.	.	.	.	.
8DD|>\J	.	8Dyy|>\J	.	8cc\	-szy	.	16d\	.	16ff#\	.	16aa\	.	8d 8D/	.	8A 8F#\	.	16a 16f#/	.	.	.	.	.
.	.	.	.	.	.	.	16d\	.	16een\JJ	.	16ggn\JJ	.	.	.	.	.	16gnJJ 16en/)	.	.	.	.	.
*rep	*	*	*	*	*	*	*	*	*	*	*	*	*	*	*	*	*	*	*	*	*	*
8DD|>\L	.	8Dyy|>\L	.	8b\L	już	.	16d\	.	8dd\L	.	8ff#\L	.	8d 8D/	.	8A 8F#\	.	8f# 8d'/	.	.	.	.	.
.	.	.	.	.	.	.	16d\	.	.	.	.	.	.	.	.	.	.	.	.	.	.	.
8AA|>\	.	8Ayy|>\	.	8cc\J	.	.	16d\	.	8ff#|> 8a\	.	8aa|>\	.	8d 8D/	.	8A 8F#\	.	8aL 8f#'/	.	.	.	.	.
.	.	.	.	.	.	.	16d\	.	.	.	.	.	.	.	.	.	.	.	.	.	.	.
8DD|>\J	.	8Dyy|>\J	.	8a\	się	.	16d\	.	8ff#|>J 8a\	.	8ccc|>\J	.	8dJ 8D/	.	8AJ 8F#\	.	8ccJ 8a'/	.	.	.	.	.
.	.	.	.	.	.	.	16d\JJ	.	.	.	.	.	.	.	.	.	.	.	.	.	.	.
*Xrep	*	*	*	*	*	*	*Xtremolo	*	*	*	*	*	*Xtremolo	*	*Xtremolo	*	*	*	*	*	*	*
!!LO:TX:a:t=θ
=67	=67	=67	=67	=67	=67	=67	=67	=67	=67	=67	=67	=67	=67	=67	=67	=67	=67	=67	=67	=67	=67	=67
*	*	*	*	*	*	*	*	*	*	*	*	*	*^	*	*	*	*^	*	*^	*	*	*
*	*	*	*	*	*	*	*	*	*	*	*	*	*	*	*	*^	*	*	*	*	*	*	*	*	*
8GGG/	f	8GGyy/	fyy	8g\	ro-	.	8G/	.	8r	.	8r	.	8r	8ryy	.	8r	8ryy	.	8r	8ryy	.	8r	8ryy	.	8r	f
*	*	*	*	*	*	*	*	*	*	*	*tremolo	*	*	*	*	*	*	*	*	*	*	*	*	*	*	*
!	!	!	!	!	!	!	!	!	!	!	!LO:TX:t=P:4.:problem	!	!	!LO:TX:t=P:problem=błędne wyświetlanie ligatury	!	!	!	!	!	!	!	!	!	!	!	!
16GG\LL	.	16Gyy\LL	.	8g\	-dzi,	.	16g\LL	f	16bb\LL	f	16dddLL 16dd\	f	[4d/	[>4d\	.	16G/LL	16G\LL	f	16bb/LL	[4dd\	f	[4dd^^/	16b\LL	f	[4ddd^^\	.
16FF#\	.	16F#yy\	.	.	.	.	16f#\	.	16aa\	.	16ddd 16dd\	.	.	.	.	16F#/	16F#\	.	16aa/	.	.	.	16a\	.	.	.
16GG\	.	16Gyy\	.	8r	.	.	16g\	.	16bb\	.	16ddd 16dd\	.	.	.	.	16G/	16G\	.	16bb/	.	.	.	16b\	.	.	.
16FF#\JJ	.	16F#yy\JJ	.	.	.	.	16f#\JJ	.	16aa\JJ	.	16dddJJ 16dd\	.	.	.	.	16F#/JJ	16F#\JJ	.	16aa/JJ	.	.	.	16g\JJ	.	.	.
*	*	*	*	*	*	*	*	*	*	*	*Xtremolo	*	*	*	*	*	*	*	*	*	*	*	*	*	*	*
8EE\	.	8Eyy\	.	(8dd\L	i	.	8e\	.	8gg\	.	8ddd\	.	8d/]	8d\]	.	8E/	8E\	.	8gg/	8dd\]	.	8dd/]	8g\	.	8ddd|>\L]	.
!	!	!	!	!	!	!	!	!	!	!	!	!	!	!	!	!	!	!	!	!	!LO:DY:b:t=p	!	!	!	!	!
!	!	!	!	!	!	!	!	!	!	!	!	!	!	!	!	!	!	!LO:DY:b:t=p	!	!	!	!	!	!	!	!
8r	.	8ryy	.	8b\J)	.	.	8r	.	8r	.	8r	.	8r	8ryy	.	8E|</L	8r	p	8b|>/L	8b\L	p	8gg|>/L	8b\L	p	8bb|>\	p
!	!	!	!	!	!	!	!	!	!	!	!	!LO:DY:b:t=p	!	!	!	!	!	!	!	!	!	!	!	!	!	!
!	!	!	!	!	!	!	!	!	!	!LO:DY:b:t=p	!	!	!	!	!	!	!	!	!	!	!	!	!	!	!	!
!	!	!	!	!	!	!	!	!LO:DY:b:t=p	!	!	!	!	!	!	!	!	!	!	!	!	!	!	!	!	!	!
!	!	!	!	!LO:ACC:color=grey	!	!	!	!	!	!	!	!	!	!	!	!	!	!	!	!	!	!	!	!	!	!
!	!	!	!LO:DY:b:t=p	!	!	!	!	!	!	!	!	!	!	!	!	!	!	!	!	!	!	!	!	!	!	!
!	!LO:DY:b:t=p	!	!	!	!	!	!	!	!	!	!	!	!	!	!	!	!	!	!	!	!	!	!	!	!	!
8AA|>\	p	8Ayy|>\	pyy	8cc#X\	jak	.	8g|>\	p	8ee|>\	p	8ccc#X|>\	p	8r	8ryy	.	8A|</J	8r	.	8cc#X|>/J	8a\J	.	8gg|>/J	8cc#X\J	.	8ccc#X|>\J	.
*	*	*	*	*	*	*	*	*	*	*	*	*	*	*	*	*	*	*	*	*	*	*v	*v	*	*	*
=68	=68	=68	=68	=68	=68	=68	=68	=68	=68	=68	=68	=68	=68	=68	=68	=68	=68	=68	=68	=68	=68	=68	=68	=68	=68
8DD\	.	8Dyy\	.	(8dd\L	daw-	.	8f#X|>\	.	8dd|>\	.	8ddd|>\	.	4r	2ryy	.	8D/L	4r	.	8dd|>/L	8a\L	.	8ff#|>L 8dd\	.	8ddd\L	.
8r	.	8ryy	.	8a\J)	.	.	8r	.	8r	.	8r	.	.	.	.	8D/	.	.	8a|>/	8a\	.	8ff#|> 8a\	.	8aa\	.
8GG\	.	8Gyy\	.	8b\	-niej	.	8fn|>\	.	8dd|>\	.	8bb|>\	.	8r	.	.	8G/J	8rGG	.	8b|>/J	8g\J	.	8ffn|>J 8b\	.	8bb\J	.
8CC\	.	8Cyy\	.	(8cc\L	zno-	.	8e|>\	.	8ccn|>\	.	8cccn|>\	.	4r	.	.	8Cn/L	4r	.	8cc|>/L	8g\L	.	8ee|>L 8cc\	.	8cccn|>\L	.
8r	.	8ryy	.	8g\J)	.	.	8r	.	8r	.	8r	.	.	8ryy	.	8C/	.	.	8g|>/	8g\J	.	8ee|>J 8g\	.	8gg|>\J	.
8FF\	.	8Fnyy\	.	8a\	-wu	.	8e-X 8c\	sf	8ee-X 8fn\	sf	8aa 8cc 8fn\	sf	8fnX/	8fnX\	sf	8Fn/J	8Fn\	sf	8a/J	8fn\	sf	8ee-X|> 8a\	sf	8aa\	sf
=69	=69	=69	=69	=69	=69	=69	=69	=69	=69	=69	=69	=69	=69	=69	=69	=69	=69	=69	=69	=69	=69	=69	=69	=69	=69
4BBB-X/	.	8BB-X/	.	8b-X\L	ma-	.	8d\	sf	8dd 8fn\	sf	8bb-X 8dd 8d\	sf	8fX/	8d\	sf	[4.Fn/	[4.BB-X\	fp	8b-X/	8b-\	sf	8dd 8b\	sf	8bb-X\	sf
!	!	!	!	!	!	!	!	!	!	!	!	!	!	!	!	!	!	!	!LO:TX:b:t=dolce	!	!LO:HP:a	!	!	!	!
!	!	!	!LO:DY:b:t=p	!	!	!	!	!	!	!	!	!	!	!	!	!	!	!	!	!	!	!	!	!	!
.	.	8BB-/L	p	8dd\J	.	.	8Fn/L	p	8r	.	8r	.	8r	8ryy	.	.	.	.	(16ffnLL 16dd/	8ryy	>	8r	.	8r	.
.	.	.	.	.	.	.	.	.	.	.	.	.	.	.	.	.	.	.	16ee 16cc#X/	.	.	.	.	.	.
8r	.	8BB-/J	.	8b-\	-rzę	.	8F/J	.	8r	.	8r	.	8r	8ryy	.	.	.	.	16ee-X 16ccn/	2ryy	.	8r	.	8r	.
.	.	.	.	.	.	.	.	.	.	.	.	.	.	.	.	.	.	.	16ddJJ 16b-X/	.	.	.	.	.	.
8r	.	8BB-/	.	4ffn\	ślub-	.	8F/	.	8r	.	8r	.	8r	8ryy	.	8F/]	8BB-\]	.	8ccn 8a/)	.	]	8r	.	8r	.
8FF\L	f	8FFn/L	f	.	.	.	8e-XL 8c/	f	8ee-XL 8fn\	f	8aaL 8cc\	f	8fnX/L	8fnX\L	f	8F/L	8F\L	f	8r	.	.	8ee-XL 8a\	f	8ccc|>\L	f
8FF\J	.	8FF/J	.	8a\	-ne	.	8e-J 8c/	.	8ee-J 8f\	.	8aaJ 8cc\	.	8f/J	8f\J	.	8F/J	8F\J	.	8r	.	.	8ee-J 8a\	.	8ccc|>\J	.
*	*	*	*	*	*	*	*	*	*	*	*	*	*	*	*	*	*	*	*v	*v	*	*	*	*	*
=70	=70	=70	=70	=70	=70	=70	=70	=70	=70	=70	=70	=70	=70	=70	=70	=70	=70	=70	=70	=70	=70	=70	=70	=70
4BBB-X|</	.	8BB-X/	.	8b-X\L	wień-	.	8d/	.	8dd 8fn\	.	8bb-X 8b-X\	.	8fX/	8d\	.	[4.Fn/	[4.BB-X\	fp	8r	.	8dd 8b-X\	.	8bb-X\	.
!	!	!	!LO:DY:b:t=p	!	!	!	!	!	!	!	!	!	!	!	!	!	!	!	!	!	!	!	!	!
.	.	8BB-/L	p	8dd\J	.	.	8Fn/L	p	8r	.	8r	.	8r	8ryy	.	.	.	.	(16ffnLL 16dd\	>	8r	.	8r	.
.	.	.	.	.	.	.	.	.	.	.	.	.	.	.	.	.	.	.	16ee 16cc#X\	.	.	.	.	.
8r	.	8BB-/J	.	8b-\	-ce	.	8F/J	.	8r	.	8r	.	8r	8ryy	.	.	.	.	16ee-X 16ccn\	.	8r	.	8r	.
.	.	.	.	.	.	.	.	.	.	.	.	.	.	.	.	.	.	.	16ddJJ 16b-X\)	.	.	.	.	.
8r	.	8BB-/	.	4ffn\	i	.	8F/	.	8r	.	8r	.	8r	8ryy	.	8F/]	8BB-\]	.	8ccn 8a\	]	8r	.	8r	f
8FF\L	f	8FFn/L	f	.	.	.	8e-XL 8c\	f	8ee-XL 8f\	f	8aaL 8cc\	f	8fnX/L	8fnX\L	f	8F/L	8F\L	f	8r	.	8ee-XL 8a\	f	8ccc|>\L	.
8FF\J	.	8FF/J	.	8a\	oł-	.	8e-J 8c\	.	8ee-J 8f\	.	8aaJ 8cc\	.	8f/J	8f\J	.	8F/J	8F\J	.	8r	.	8ee-J 8a\	.	8ccc|>\J	.
=71	=71	=71	=71	=71	=71	=71	=71	=71	=71	=71	=71	=71	=71	=71	=71	=71	=71	=71	=71	=71	=71	=71	=71	=71
4BBB-X/	.	8BB-X/	.	8b-X\L	-ta-	.	8d\	.	8dd 8fn\	.	8bb-X 8b-X\	.	8fX/	8d\	.	[4.Fn/	[4.BB-X\	fp	8r	.	8dd 8b-X\	.	8bb-X\	.
!	!	!	!LO:DY:b:t=p	!	!	!	!	!	!	!	!	!	!	!	!	!	!	!	!	!	!	!	!	!
.	.	8BB-/L	p	8dd\J	.	.	8Fn/L	p	8r	.	8r	.	8r	8ryy	.	.	.	.	(16ffnLL 16dd\	>	8r	.	8r	.
.	.	.	.	.	.	.	.	.	.	.	.	.	.	.	.	.	.	.	16ee 16cc#X\	.	.	.	.	.
8r	.	8BB-/J	.	8b-\	-rze,	.	8F/J	.	8r	.	8r	.	8r	8ryy	.	.	.	.	16ee-X 16ccn\	.	8r	.	8r	.
.	.	.	.	.	.	.	.	.	.	.	.	.	.	.	.	.	.	.	16ddJJ 16b-X\)	.	.	.	.	.
8r	.	8BB-/	.	4ffn\	bli-	.	8F/	.	8r	.	8r	.	8r	8ryy	.	8F/]	8BB-\]	.	8cc 8a\	]	8r	.	8r	.
8FF\L	f	8FFn/L	f	.	.	.	8e-XL 8c\	f	8ee-XL 8f\	f	8aaL 8cc\	f	8fnX/L	8fn\L	f	8F/L	8F\L	f	8r	.	8ee-XL 8a\	f	8ccc|>\L	f
8FF\J	.	8FF/J	.	8ff-X\	-skie	.	8e-J 8c\	.	8ee-J 8f\	.	8aaJ 8cc\	.	8f/J	8f\J	.	8F/J	8F\J	.	8r	.	8ee-J 8a\	.	8ccc|>\J	.
!!LO:PB:g=original
=72	=72	=72	=72	=72	=72	=72	=72	=72	=72	=72	=72	=72	=72	=72	=72	=72	=72	=72	=72	=72	=72	=72	=72	=72
*rep	*	*rep	*	*	*	*	*rep	*	*rep	*	*rep	*	*rep	*rep	*	*rep	*rep	*	*rep	*	*rep	*	*rep	*
4BBB-X/	.	8BB-X/	.	4dd\	me,	.	8d\	.	8dd 8fn\	.	8bb-X 8b-X\	.	8fX/	8d\	.	[4.Fn/	[4.BB-X\	fp	8r	.	8dd 8b-X\	.	8bb-X\	.
!	!	!	!LO:DY:b:t=p	!	!	!	!	!	!	!	!	!	!	!	!	!	!	!	!	!	!	!	!	!
.	.	8BB-/L	p	.	.	.	8Fn/L	p	8r	.	8r	.	8r	8ryy	.	.	.	.	(16ffnLL 16dd\	>	8r	.	8r	.
.	.	.	.	.	.	.	.	.	.	.	.	.	.	.	.	.	.	.	16ee 16cc#X\	.	.	.	.	.
8r	.	8BB-/J	.	8b\	za-	.	8F/J	.	8r	.	8r	.	8r	8ryy	.	.	.	.	16ee-X 16ccn\	.	8r	.	8r	.
.	.	.	.	.	.	.	.	.	.	.	.	.	.	.	.	.	.	.	16ddJJ 16b-X\)	.	.	.	.	.
8r	.	8BB-/	.	(4ff#\	-męś-	.	8F/	.	8r	.	8r	.	8r	8ryy	.	8F/]	8BB-\]	.	8cc 8a\	]	8r	.	8r	.
8FF\L	f	8FFn/L	f	.	.	.	8e-XL 8c\	f	8ee-XL 8f\	f	8aaL 8cc\	f	8fnX/L	8fn\L	f	8F/L	8F\L	f	8r	.	8ee-XL 8a\	f	8ccc|>\L	f
8FF\J	.	8FF/J	.	8ee-X\)	.	.	8e-J 8c\	.	8ee-J 8f\	.	8aaJ 8cc\	.	8f/J	8f\J	.	8F/J	8F\J	.	8r	.	8ee-J 8a\	.	8ccc|>\J	.
*Xrep	*	*Xrep	*	*	*	*	*Xrep	*	*Xrep	*	*Xrep	*	*Xrep	*Xrep	*	*Xrep	*Xrep	*	*Xrep	*	*Xrep	*	*Xrep	*
*	*	*	*	*	*	*	*	*	*	*	*	*	*	*	*	*v	*v	*	*	*	*	*	*	*
=73	=73	=73	=73	=73	=73	=73	=73	=73	=73	=73	=73	=73	=73	=73	=73	=73	=73	=73	=73	=73	=73	=73	=73
8BBB-X/	.	8BB-X/	.	4dd\	-cie,	.	8d\	.	8dd 8fn\	.	8bb-X 8b-X\	.	8fX/	8d\	.	8Fn 8BB-X/	.	8dd 8b-X\	sf	8dd 8b-X\	.	8ddd\	.
8r	.	8r	.	.	.	.	8r	.	8r	.	8r	.	8r	8ryy	.	8r	.	8r	.	8r	.	8r	.
8r	.	8r	.	8r	.	.	8r	.	8r	.	8r	.	8r	2ryy	.	8r	.	8r	.	8r	.	8r	.
!	!	!	!	!	!	!	!	!	!	!	!	!LO:DY:b:t=p	!	!	!	!	!	!	!	!	!	!	!
4r	.	(4.B-X\	p	8dd\L	mo-	.	(4.d\	p	(4.e/	p	(4.dd\	p	4r	.	.	4r	.	4r	.	4r	.	4r	.
.	.	.	.	8ee-X\J	.	.	.	.	.	.	.	.	.	.	.	.	.	.	.	.	.	.	.
8r	.	.	.	8dd\	-ją	.	.	.	.	.	.	.	8r	.	.	8r	.	8r	.	8r	.	8r	.
*	*	*	*	*	*	*	*	*	*	*	*	*	*v	*v	*	*	*	*	*	*	*	*	*
=74	=74	=74	=74	=74	=74	=74	=74	=74	=74	=74	=74	=74	=74	=74	=74	=74	=74	=74	=74	=74	=74	=74
2.r	.	4.A\	.	8cc#X\L	mi-	.	4.e\	.	4.g/	.	4.cc#X\	.	2.r	.	2.r	.	2.r	.	2.r	.	2.r	.
.	.	.	.	8dd\J	.	.	.	.	.	.	.	.	.	.	.	.	.	.	.	.	.	.
.	.	.	.	8cc#\	-łość,	.	.	.	.	.	.	.	.	.	.	.	.	.	.	.	.	.
.	.	4.F#\)	.	8ccn\L	mo-	.	4.e-X\)	.	4.a/)	.	4.ccn\)	.	.	.	.	.	.	.	.	.	.	.
.	.	.	.	8dd\J	.	.	.	.	.	.	.	.	.	.	.	.	.	.	.	.	.	.
.	.	.	.	8cc\	-ją	.	.	.	.	.	.	.	.	.	.	.	.	.	.	.	.	.
=75	=75	=75	=75	=75	=75	=75	=75	=75	=75	=75	=75	=75	=75	=75	=75	=75	=75	=75	=75	=75	=75	=75
*	*	*	*	*	*	*	*	*	*	*	*	*	*	*	*^	*	*^	*	*	*	*	*
4GG\	p	(4d\	.	(4b\	[[....	.	8r	.	8r	.	8r	.	2.r	.	(<4d/	4G\	p	(4.b/	4.g\	p	2.r	.	2.r	.
.	.	.	.	.	.	.	8g|>L 8B\	.	8bn|<L 8d/	.	(8b\L	.	.	.	.	.	.	.	.	.	.	.	.	.
8r	.	8d#X\	.	8gg\)	.	.	8g|>J 8B\	.	8b|</J	.	8gg\J)	.	.	.	8B/	8r	.	.	.	.	.	.	.	.
4CC/	.	8e\L	.	(4a\	......	bli-	8r	.	8r	.	8r	.	.	.	4.c/	4C\	.	4.a/	4.e\	.	.	.	.	.
.	.	8c\	.	.	.	.	8e|>L 8c\	.	8a|<L 8e/	.	(8a\L	.	.	.	.	.	.	.	.	.	.	.	.	.
8r	.	8A\J)	.	8ee\)	.....]]	-skie	8e|>J 8c\	.	8a|<J 8e/	.	8ee\J)	.	.	.	.	8r	.	.	.	.	.	.	.	.
=76	=76	=76	=76	=76	=76	=76	=76	=76	=76	=76	=76	=76	=76	=76	=76	=76	=76	=76	=76	=76	=76	=76	=76	=76
4DD\	.	(8G\L	.	8dd\L	me	.	8r	.	8r	.	8r	.	2.r	.	8B/L	4D\	.	4.g/	[2.d\	.	2.r	.	2.r	.
.	.	8F#X\	.	8cc#X\J	.	.	8d\L	.	8dL 8G/	.	(8d/L	.	.	.	8A#X/	.	.	.	.	.	.	.	.	.
8r	.	8G\J	.	8dd\	.	.	8d\J	.	8gJ 8G/	.	8g/J)	.	.	.	8B/J	8r	.	.	.	.	.	.	.	.
4DD\	.	4d\	.	(8.ee\L	za-	.	8d\	.	8f#/	.	8f#/	.	.	.	4.An/	4D\	.	4f#/)	.	.	.	.	.	.
.	.	.	.	.	.	.	8r	.	8r	.	8r	.	.	.	.	.	.	.	.	.	.	.	.	.
.	.	.	.	16ee\L	-męś-	.	.	.	.	.	.	.	.	.	.	.	.	.	.	.	.	.	.	.
8r	.	8c\)	.	16dd\	.	.	8r	.	8r	.	8r	.	.	.	.	8r	.	8r	.	.	.	.	.	.
.	.	.	.	16a\JJ)	.	.	.	.	.	.	.	.	.	.	.	.	.	.	.	.	.	.	.	.
=77	=77	=77	=77	=77	=77	=77	=77	=77	=77	=77	=77	=77	=77	=77	=77	=77	=77	=77	=77	=77	=77	=77	=77	=77
4GGG'/	.	8B\	.	4g\	-cie.	.	8d 8G/	.	8g 8B/	.	8g/	.	2.r	.	8B/)	8G\	.	8r	8d\]	.	2.r	.	2.r	.
.	.	(8G\L	.	.	.	.	8r	.	8r	.	8r	.	.	.	8r	8ryy	.	(<8g/L	8rA	.	.	.	.	.
8r	.	8B\J	.	8r	.	.	8r	.	8r	.	8r	.	.	.	8r	2ryy	.	8b/J	8rA	.	.	.	.	.
4r	.	8d\L	.	4r	.	.	4r	.	4r	.	4r	.	.	.	4r	.	.	8dd/L	4rA	.	.	.	.	.
.	.	8B\	.	.	.	.	.	.	.	.	.	.	.	.	.	.	.	8b/	.	.	.	.	.	.
8r	.	8g\J)	.	8r	.	.	8r	.	8r	.	8r	.	.	.	8r	.	.	8gg/J)	8rA	.	.	.	.	.
*	*	*	*	*	*	*	*	*	*	*	*	*	*	*	*v	*v	*	*	*	*	*	*	*	*
*	*	*	*	*	*	*	*	*	*	*	*	*	*	*	*	*	*v	*v	*	*	*	*	*
!!LO:PB:g=original
=78	=78	=78	=78	=78	=78	=78	=78	=78	=78	=78	=78	=78	=78	=78	=78	=78	=78	=78	=78	=78	=78	=78
!LO:TX:a:t=Lento.	!	!	!	!LO:TX:a:t=lento.	!	!	!	!	!	!	!LO:TX:a:t=Lento.	!	!	!	!	!	!	!	!	!	!	!
(4.CC#X^/	.	(yy4.C#X/	.	4g\	ma-	.	[4.A^/	.	(4.e^>/	.	(4.g^>/	.	2.r	.	2.r	.	2.r	.	2.r	.	2.r	.
.	.	.	.	8g\	-rzę	.	.	.	.	.	.	.	.	.	.	.	.	.	.	.	.	.
!	!	!LO:TX:t=Col. CB.	!	!	!	!	!	!	!	!	!	!	!	!	!	!	!	!	!	!	!	!
4.CC^/	.	4.Cyy^/	.	8a\L	mi-	.	4.A^/]	.	4.d^/	.	4.f#^>/	.	.	.	.	.	.	.	.	.	.	.
.	.	.	.	8b\J	.	.	.	.	.	.	.	.	.	.	.	.	.	.	.	.	.	.
.	.	.	.	8cc\	-łość,	.	.	.	.	.	.	.	.	.	.	.	.	.	.	.	.	.
=79	=79	=79	=79	=79	=79	=79	=79	=79	=79	=79	=79	=79	=79	=79	=79	=79	=79	=79	=79	=79	=79	=79
4.BBB^/	.	4.BByy^/	.	8dd\L	mo-	.	4.G^/	.	4.d^/	.	4.g^>/	.	2.r;	.	2.r;	.	2.r;	.	2.r;	.	2.r;	.
.	.	.	.	8ee\J	.	.	.	.	.	.	.	.	.	.	.	.	.	.	.	.	.	.
.	.	.	.	8ff#\	-je	.	.	.	.	.	.	.	.	.	.	.	.	.	.	.	.	.
4.AAA^;/)	.	4.AAyy^;/)yy	.	8aa;\L	szczę-	.	4.e^<;\	.	4.c#X^;/)	.	4.g^<;/)	.	.	.	.	.	.	.	.	.	.	.
.	.	.	.	8gg\	.	.	.	.	.	.	.	.	.	.	.	.	.	.	.	.	.	.
.	.	.	.	8ee\J	-ście,	.	.	.	.	.	.	.	.	.	.	.	.	.	.	.	.	.
=80	=80	=80	=80	=80	=80	=80	=80	=80	=80	=80	=80	=80	=80	=80	=80	=80	=80	=80	=80	=80	=80	=80
!	!	!	!	!LO:TX:t=P:problem=takt zapisany powtórnie u dołu systemu, zapewne dla lepszej czytelności pasażu	!	!	!	!	!	!	!	!	!	!	!	!	!	!	!	!	!	!
8DD\	.	8Dyy\	.	4dd;\	ma-	.	8g 8B\	.	8b 8d 8G/	.	8b 8d 8G/	.	2.r;	.	2.r;	.	2.r;	.	2.r;	.	2.r;	.
8r	.	8ryy	.	.	.	.	8r	.	8r	.	8r	.	.	.	.	.	.	.	.	.	.	.
.	.	.	.	(8qqcc/L	.	.	.	.	.	.	.	.	.	.	.	.	.	.	.	.	.	.
.	.	.	.	8qqb/	.	.	.	.	.	.	.	.	.	.	.	.	.	.	.	.	.	.
.	.	.	.	8qqcc/	.	.	.	.	.	.	.	.	.	.	.	.	.	.	.	.	.	.
.	.	.	.	8qqdd/	.	.	.	.	.	.	.	.	.	.	.	.	.	.	.	.	.	.
.	.	.	.	8qqee/	.	.	.	.	.	.	.	.	.	.	.	.	.	.	.	.	.	.
.	.	.	.	8qqff#/	.	.	.	.	.	.	.	.	.	.	.	.	.	.	.	.	.	.
.	.	.	.	8qqgg/	.	.	.	.	.	.	.	.	.	.	.	.	.	.	.	.	.	.
.	.	.	.	8qqaa/L	.	.	.	.	.	.	.	.	.	.	.	.	.	.	.	.	.	.
.	.	.	.	8qqaa#X/JJ	.	.	.	.	.	.	.	.	.	.	.	.	.	.	.	.	.	.
8r	.	8ryy	.	8bb\)	.	.	8r	.	8r	.	8r	.	.	.	.	.	.	.	.	.	.	.
!	!	!	!	!LO:TX:a:t=lento.	!	!	!	!	!	!	!	!	!	!	!	!	!	!	!	!	!	!
4r;	.	4ryy;	.	8gg\	-rzę	.	4r;	.	4r;	.	4r;	.	.	.	.	.	.	.	.	.	.	.
.	.	.	.	8dd\	me	.	.	.	.	.	.	.	.	.	.	.	.	.	.	.	.	.
8r	.	8ryy	.	8b\	za-	.	8r	.	8r	.	8r	.	.	.	.	.	.	.	.	.	.	.
=81	=81	=81	=81	=81	=81	=81	=81	=81	=81	=81	=81	=81	=81	=81	=81	=81	=81	=81	=81	=81	=81	=81
*	*	*	*	*	*	*	*	*	*	*	*	*	*	*	*	*	*^	*	*	*	*	*
*tremolo	*	*tremolo	*	*	*	*	*tremolo	*	*tremolo	*	*tremolo	*	*	*	*	*	*	*	*	*	*	*	*
!	!	!	!	!LO:TX:a:t=a tempo	!	!	!	!	!	!	!	!	!	!	!	!	!	!	!	!	!	!	!
8DD\L	f	16D\LL	f	([4.ee\	-męś-	.	8d\L	f	16dd;<LL 16d/	f	16ff#;LL 16a\	f	(2.a (2.d;\	f	2.r	.	(2.cc;/	(2.f#\	.	2.r	.	2.r	.
.	.	16D\	.	.	.	.	.	.	16dd 16d/	.	16ff# 16a\	.	.	.	.	.	.	.	.	.	.	.	.
8DD\	.	16D\	.	.	.	.	8d\	.	16dd 16d/	.	16ff# 16a\	.	.	.	.	.	.	.	.	.	.	.	.
.	.	16D\	.	.	.	.	.	.	16dd 16d/	.	16ff# 16a\	.	.	.	.	.	.	.	.	.	.	.	.
8DD\	.	16D\	.	.	.	.	8d\	.	16dd 16d/	.	16ff# 16a\	.	.	.	.	.	.	.	.	.	.	.	.
.	.	16D\	.	.	.	.	.	.	16dd 16d/	.	16ff# 16a\	.	.	.	.	.	.	.	.	.	.	.	.
8DD\	.	16D\	.	4ee\]	.	.	8d\	.	16dd 16d/	.	16ff# 16a\	.	.	.	.	.	.	.	.	.	.	.	.
.	.	16D\	.	.	.	.	.	.	16dd 16d/	.	16ff# 16a\	.	.	.	.	.	.	.	.	.	.	.	.
8DD\	.	16D\	.	.	.	.	8d\	.	16dd 16d/	.	16ff# 16a\	.	.	.	.	.	.	.	.	.	.	.	.
.	.	16D\	.	.	.	.	.	.	16dd 16d/	.	16ff# 16a\	.	.	.	.	.	.	.	.	.	.	.	.
8DD\J	.	16D\	.	8dd\)	.	.	8d\J	.	16dd 16d/	.	16ff# 16a\	.	.	.	.	.	.	.	.	.	.	.	.
.	.	16D\JJ	.	.	.	.	.	.	16ddJJ 16d/	.	16ff#JJ 16a\	.	.	.	.	.	.	.	.	.	.	.	.
*Xtremolo	*	*Xtremolo	*	*	*	*	*Xtremolo	*	*Xtremolo	*	*Xtremolo	*	*	*	*	*	*	*	*	*	*	*	*
=82	=82	=82	=82	=82	=82	=82	=82	=82	=82	=82	=82	=82	=82	=82	=82	=82	=82	=82	=82	=82	=82	=82	=82
8GG\	.	8G\	.	4g\	-cie!	.	8d 8G/	.	8b 8d/	.	8gg 8b\	.	4g 4G/))	.	4G 4GG\	ff	8b/)	8g\)	.	8r	.	8r	.
8r	.	8r	.	.	.	.	8r	.	8r	.	8r	.	.	.	.	.	8ryy	(16ddLL 16b\	ff	(16ddLL 16b\	ff	(16ddd\LL	ff
.	.	.	.	.	.	.	.	.	.	.	.	.	.	.	.	.	.	16cc#X 16a#X\	.	16cc#X 16a#X\	.	16ccc#X\	.
8r	.	8r	.	8r	.	.	8r	.	8r	.	8r	.	8r	.	8r	.	2ryy	16dd 16b\	.	16dd 16b\	.	16ddd\	.
.	.	.	.	.	.	.	.	.	.	.	.	.	.	.	.	.	.	16ccnJJ 16an\)	.	16ccnJJ 16an\)	.	16cccn\JJ)	.
*tremolo	*	*tremolo	*	*	*	*	*tremolo	*	*tremolo	*	*tremolo	*	*tremolo	*	*tremolo	*	*	*tremolo	*	*tremolo	*	*tremolo	*
8GGG/L	ff	8GG/L	ff	4r	.	.	8G/L	.	8ddL 8g/	ff	8bbL 8b\	ff	8gL 8B/	ff	8dL 8G\	.	.	8bL 8g\	.	8bL 8g\	.	8bb\L	.
8GGG/	.	8GG/	.	.	.	.	8G/	.	8dd 8g/	.	8bb 8b\	.	8g 8B/	.	8d 8G\	.	.	8b 8g\	.	8b 8g\	.	8bb\	.
8GGG/J	.	8GG/J	.	8r	.	.	8G/J	.	8ddJ 8g/	.	8bbJ 8b\	.	8gJ 8B/	.	8dJ 8G\	.	.	8bJ 8g\	.	8bJ 8g\	.	8bb\J	.
*	*	*	*	*	*	*	*	*	*	*	*	*	*	*	*	*	*v	*v	*	*	*	*	*
=83	=83	=83	=83	=83	=83	=83	=83	=83	=83	=83	=83	=83	=83	=83	=83	=83	=83	=83	=83	=83	=83	=83
8BBB/L	.	8BB/L	.	2.r	.	.	8B/L	.	8ddL 8g/	.	8ggL 8b\	.	8gL 8B/	.	8dL 8G\	.	8ddL 8b\	.	8bL 8g\	.	8gg\L	.
8BBB/	.	8BB/	.	.	.	.	8B/	.	8dd 8g/	.	8gg 8b\	.	8g 8B/	.	8d 8G\	.	8dd 8b\	.	8b 8g\	.	8gg\	.
8BBB/J	.	8BB/J	.	.	.	.	8B/J	.	8ddJ 8g/	.	8ggJ 8b\	.	8g 8B/	.	8d 8G\	.	8ddJ 8b\	.	8b 8g\	.	8gg\J	.
8DD/L	.	8D/L	.	.	.	.	8d/L	.	8bL 8d/	.	8ddL 8d/	.	8g 8B/	.	8d 8G\	.	8bL 8g/	.	8b 8g\	.	8dd\L	.
8DD/	.	8D/	.	.	.	.	8d/	.	8b 8d/	.	8dd 8d/	.	8g 8B/	.	8d 8G\	.	8b 8g/	.	8b 8g\	.	8dd\	.
8DD/J	.	8D/J	.	.	.	.	8d/J	.	8bJ 8d/	.	8ddJ 8d/	.	8gJ 8B/	.	8dJ 8G\	.	8bJ 8g/	.	8bJ 8g\	.	8dd\J	.
*Xtremolo	*	*Xtremolo	*	*	*	*	*Xtremolo	*	*Xtremolo	*	*Xtremolo	*	*Xtremolo	*	*Xtremolo	*	*Xtremolo	*	*Xtremolo	*	*Xtremolo	*
=84	=84	=84	=84	=84	=84	=84	=84	=84	=84	=84	=84	=84	=84	=84	=84	=84	=84	=84	=84	=84	=84	=84
4GG\	.	4G\	.	2.r	.	.	4g\	.	4b 4d/	.	4b 4d/	.	4g 4B/	.	4d 4G\	.	4b 4g/	.	4b 4g\	.	4b\	.
8r	.	8r	.	.	.	.	8r	.	8r	.	8r	.	8r	.	8r	.	8r	.	8r	.	8r	.
4GG\	.	4G\	.	.	.	.	4g 4G\	.	4dd 4g 4G/	.	4gg 4b 4d\	.	4g 4B/	.	4d 4G\	.	4b 4g/	.	4gg 4b\	.	4gg\	.
8r	.	8r	.	.	.	.	8r	.	8r	.	8r	.	8r	.	8r	.	8r	.	8r	.	8r	.
=85	=85	=85	=85	=85	=85	=85	=85	=85	=85	=85	=85	=85	=85	=85	=85	=85	=85	=85	=85	=85	=85	=85
4DD\	.	4D/	.	2.r	.	.	4d 4G/	.	4dd 4g 4G/	.	4gg 4b 4d\	.	4g 4B/	.	4d 4D\	.	4dd 4b\	.	4dd 4b\	.	4bb\	.
8r	.	8r	.	.	.	.	8r	.	8r	.	8r	.	8r	.	8r	.	8r	.	8r	.	8r	.
4BBB/	.	4BB/	.	.	.	.	4B/	.	4dd 4g 4G/	.	4gg 4b 4d\	.	4g 4B/	.	4B 4BB\	.	4gg 4b\	.	4b 4g/	.	4ddd\	.
8r	.	8r	.	.	.	.	8r	.	8r	.	8r	.	8r	.	8r	.	8r	.	8r	.	8r	.
=86	=86	=86	=86	=86	=86	=86	=86	=86	=86	=86	=86	=86	=86	=86	=86	=86	=86	=86	=86	=86	=86	=86
4GGG/	.	4G 4GG/	.	2.r	.	.	4G/	.	4dd 4g 4G/	.	4gg 4b 4d\	.	4g 4B/	.	4G 4GG/	.	4bb 4dd\	.	4b 4g/	.	4ggg\	.
8r	.	8r	.	.	.	.	8r	.	8r	.	8r	.	8r	.	8r	.	8r	.	8r	.	8r	.
4r	.	4r	.	.	.	.	4r	.	4r	.	4r	.	4r	.	4r	.	4r	.	4r	.	4r	.
8r	.	8r	.	.	.	.	8r	.	8r	.	8r	.	8r	.	8r	.	8r	.	8r	.	8r	.
==	==	==	==	==	==	==	==	==	==	==	==	==	==	==	==	==	==	==	==	==	==	==
*-	*-	*-	*-	*-	*-	*-	*-	*-	*-	*-	*-	*-	*-	*-	*-	*-	*-	*-	*-	*-	*-	*-
!!!system-decoration: (<g1>{g2}{s9}g3)
!!!RDF**kern: > = above
!!!RDF**kern: < = below
!!!RDF**kern: | = vertical stroke
!!!RDF**dynam: p = p.
!!!RDF**dynam: pp = pp.
!!!ENC: Andrzej Gręziak
!!!END: 2021-09-06
!!!ENC: Kamil Watkowski
!!!END: 2021-10-05
!!!YEC: Copyright 2022 Narodowy Instytut Fryderyka Chopina (https://polishscores.org)
!!!YEM: License CC-BY-4.0 (https://creativecommons.org/licenses/by/4.0)
